;FLAVOR:UltiGCode
;TIME:1778
;MATERIAL:2653
;MATERIAL2:0
;NOZZLE_DIAMETER:0.4
;MINX:37.123
;MINY:37.037
;MINZ:0.3
;MAXX:82.877
;MAXY:82.877
;MAXZ:9
;Generated with Cura_SteamEngine 4.7.1
M82 ;absolute extrusion mode
G0 F3000 Y50 ;avoid prime blob
G92 E0
G92 E0
G10
;LAYER_COUNT:59
;LAYER:0
M107
;MESH:ext_shell_3.stl
G0 F3600 X43.786 Y42.406 Z0.3
;TYPE:WALL-INNER
G11
G1 F1800 X43.294 Y42.557 E0.06176
G1 X42.873 Y42.854 E0.12358
G1 X42.568 Y43.27 E0.18548
G1 X42.418 Y43.739 E0.24457
G1 X42.398 Y44.043 E0.28113
G1 X42.482 Y44.528 E0.3402
G1 X42.728 Y44.981 E0.40206
G1 X43.103 Y45.333 E0.46377
G1 X43.572 Y45.549 E0.52574
G1 X44.083 Y45.605 E0.58742
G1 X44.588 Y45.496 E0.64942
G1 X45.031 Y45.233 E0.71124
G1 X45.369 Y44.841 E0.77335
G1 X45.565 Y44.365 E0.83513
G1 X45.601 Y43.851 E0.89696
G1 X45.47 Y43.351 E0.95898
G1 X45.19 Y42.921 E1.02056
G1 X44.786 Y42.599 E1.08255
G1 X44.303 Y42.422 E1.14428
G1 X43.786 Y42.406 E1.20635
G0 F3600 X49.807 Y43.647
G0 X50.869 Y44.629
G1 F1800 X50.654 Y44.134 E1.27111
G1 X50.308 Y43.748 E1.33332
G1 X49.861 Y43.493 E1.39507
G1 X49.355 Y43.394 E1.45694
G1 X48.843 Y43.458 E1.51886
G1 X48.378 Y43.683 E1.58085
G1 X48.011 Y44.041 E1.64237
G1 X47.771 Y44.499 E1.70442
G1 X47.692 Y45.01 E1.76647
G1 X47.777 Y45.52 E1.82852
G1 X48.022 Y45.975 E1.89053
G1 X48.395 Y46.328 E1.95215
G1 X48.862 Y46.547 E2.01405
G1 X49.373 Y46.606 E2.07578
G1 X49.88 Y46.5 E2.13793
G1 X50.325 Y46.239 E2.19984
G1 X50.664 Y45.85 E2.26176
G1 X50.872 Y45.352 E2.32652
G1 X50.869 Y44.629 E2.41328
G0 F3600 X54.37 Y44.654
G1 F1800 X53.877 Y44.964 E2.48317
G1 X53.464 Y45.377 E2.55325
G1 X53.154 Y45.87 E2.62314
G1 X52.962 Y46.42 E2.69304
G1 X52.9 Y46.967 E2.7591
G1 X52.9 Y73.033 E5.88702
G1 X52.962 Y73.58 E5.95308
G1 X53.154 Y74.13 E6.02299
G1 X53.464 Y74.623 E6.09287
G1 X53.877 Y75.036 E6.16296
G1 X54.37 Y75.346 E6.23285
G1 X54.92 Y75.538 E6.30275
G1 X55.467 Y75.6 E6.36881
G1 X64.533 Y75.6 E7.45673
G1 X65.08 Y75.538 E7.52279
G1 X65.63 Y75.346 E7.5927
G1 X66.123 Y75.036 E7.66258
G1 X66.536 Y74.623 E7.73267
G1 X66.846 Y74.13 E7.80256
G1 X67.038 Y73.58 E7.87246
G1 X67.1 Y73.033 E7.93852
G1 X67.1 Y46.967 E11.06644
G1 X67.038 Y46.42 E11.1325
G1 X66.846 Y45.87 E11.20241
G1 X66.536 Y45.377 E11.27229
G1 X66.123 Y44.964 E11.34238
G1 X65.63 Y44.654 E11.41226
G1 X65.08 Y44.462 E11.48217
G1 X64.533 Y44.4 E11.54823
G1 X55.467 Y44.4 E12.63615
G1 X54.92 Y44.462 E12.70221
G1 X54.37 Y44.654 E12.77212
G0 F3600 X53.591 Y45.479
G0 X51.369 Y51.629
G1 F1800 X51.154 Y51.134 E12.83688
G1 X50.808 Y50.748 E12.89908
G1 X50.361 Y50.493 E12.96084
G1 X49.855 Y50.394 E13.02271
G1 X49.343 Y50.458 E13.08463
G1 X48.878 Y50.683 E13.14662
G1 X48.511 Y51.041 E13.20814
G1 X48.271 Y51.499 E13.27019
G1 X48.192 Y52.01 E13.33224
G1 X48.277 Y52.52 E13.39428
G1 X48.522 Y52.975 E13.45629
G1 X48.895 Y53.328 E13.51792
G1 X49.362 Y53.547 E13.57981
G1 X49.873 Y53.606 E13.64154
G1 X50.38 Y53.5 E13.7037
G1 X50.825 Y53.239 E13.7656
G1 X51.164 Y52.85 E13.82752
G1 X51.372 Y52.352 E13.89229
G1 X51.369 Y51.629 E13.97905
G0 F3600 X51.369 Y59.629
G1 F1800 X51.154 Y59.134 E14.04381
G1 X50.808 Y58.748 E14.10601
G1 X50.361 Y58.493 E14.16777
G1 X49.855 Y58.394 E14.22964
G1 X49.343 Y58.458 E14.29156
G1 X48.878 Y58.683 E14.35355
G1 X48.511 Y59.041 E14.41507
G1 X48.271 Y59.499 E14.47712
G1 X48.192 Y60.01 E14.53917
G1 X48.277 Y60.52 E14.60121
G1 X48.522 Y60.975 E14.66322
G1 X48.895 Y61.328 E14.72485
G1 X49.362 Y61.547 E14.78674
G1 X49.873 Y61.606 E14.84847
G1 X50.38 Y61.5 E14.91063
G1 X50.825 Y61.239 E14.97253
G1 X51.164 Y60.85 E15.03445
G1 X51.372 Y60.352 E15.09922
G1 X51.369 Y59.629 E15.18598
G0 F3600 X50.869 Y68.629
G1 F1800 X50.654 Y68.134 E15.25074
G1 X50.308 Y67.748 E15.31294
G1 X49.861 Y67.493 E15.3747
G1 X49.355 Y67.394 E15.43657
G1 X48.843 Y67.458 E15.49849
G1 X48.378 Y67.683 E15.56048
G1 X48.011 Y68.041 E15.622
G1 X47.771 Y68.499 E15.68405
G1 X47.692 Y69.01 E15.7461
G1 X47.777 Y69.52 E15.80814
G1 X48.022 Y69.975 E15.87015
G1 X48.395 Y70.328 E15.93178
G1 X48.862 Y70.547 E15.99368
G1 X49.373 Y70.606 E16.0554
G1 X49.88 Y70.5 E16.11756
G1 X50.325 Y70.239 E16.17947
G1 X50.664 Y69.85 E16.24138
G1 X50.872 Y69.352 E16.30615
G1 X50.869 Y68.629 E16.39291
G0 F3600 X50.526 Y69.762
G0 X44 Y72.604
G1 F1800 X44.58 Y72.538 E16.46296
G1 X45.13 Y72.346 E16.53286
G1 X45.623 Y72.036 E16.60275
G1 X46.036 Y71.623 E16.67283
G1 X46.346 Y71.13 E16.74272
G1 X46.538 Y70.58 E16.81262
G1 X46.6 Y70.033 E16.87868
G1 X46.599 Y49.949 E19.28876
G1 X46.538 Y49.42 E19.35267
G1 X46.346 Y48.87 E19.42257
G1 X46.036 Y48.377 E19.49246
G1 X45.623 Y47.964 E19.56254
G1 X45.13 Y47.654 E19.63243
G1 X44.58 Y47.462 E19.70233
G1 X44 Y47.396 E19.77238
G1 X43.42 Y47.462 E19.84243
G1 X42.87 Y47.654 E19.91234
G1 X42.377 Y47.964 E19.98222
G1 X41.964 Y48.377 E20.05231
G1 X41.654 Y48.87 E20.12219
G1 X41.462 Y49.42 E20.1921
G1 X41.4 Y49.967 E20.25816
G1 X41.401 Y70.051 E22.66824
G1 X41.462 Y70.58 E22.73214
G1 X41.654 Y71.13 E22.80205
G1 X41.964 Y71.623 E22.87193
G1 X42.377 Y72.036 E22.94202
G1 X42.87 Y72.346 E23.0119
G1 X43.42 Y72.538 E23.08181
G1 X44 Y72.604 E23.15186
G0 F3600 X43.786 Y74.406
G1 F1800 X43.294 Y74.557 E23.21362
G1 X42.873 Y74.854 E23.27544
G1 X42.568 Y75.27 E23.33734
G1 X42.418 Y75.739 E23.39643
G1 X42.398 Y76.043 E23.43299
G1 X42.482 Y76.528 E23.49206
G1 X42.728 Y76.981 E23.55391
G1 X43.103 Y77.333 E23.61563
G1 X43.572 Y77.549 E23.67759
G1 X44.083 Y77.605 E23.73928
G1 X44.588 Y77.496 E23.80128
G1 X45.031 Y77.233 E23.8631
G1 X45.369 Y76.841 E23.92521
G1 X45.565 Y76.365 E23.98698
G1 X45.601 Y75.851 E24.04882
G1 X45.47 Y75.351 E24.11084
G1 X45.19 Y74.921 E24.17242
G1 X44.786 Y74.599 E24.23441
G1 X44.303 Y74.422 E24.29614
G1 X43.786 Y74.406 E24.35821
G0 F3600 X55.473 Y75.439
G0 X64.527 Y75.439
G0 X65.559 Y75.2
G0 X66.409 Y74.521
G0 X69.291 Y69.232
G0 X69.542 Y68.138
G0 X70.288 Y67.615
G0 X71.207 Y67.647
G0 X72.269 Y68.629
G1 F1800 X72.054 Y68.134 E24.42297
G1 X71.708 Y67.748 E24.48518
G1 X71.261 Y67.493 E24.54693
G1 X70.755 Y67.394 E24.6088
G1 X70.243 Y67.458 E24.67072
G1 X69.778 Y67.683 E24.73271
G1 X69.411 Y68.041 E24.79423
G1 X69.171 Y68.499 E24.85628
G1 X69.092 Y69.01 E24.91833
G1 X69.177 Y69.52 E24.98037
G1 X69.422 Y69.975 E25.04238
G1 X69.795 Y70.328 E25.10401
G1 X70.262 Y70.547 E25.16591
G1 X70.773 Y70.606 E25.22763
G1 X71.28 Y70.5 E25.28979
G1 X71.725 Y70.239 E25.3517
G1 X72.064 Y69.85 E25.41362
G1 X72.272 Y69.352 E25.47838
G1 X72.269 Y68.629 E25.56514
G0 F3600 X74.091 Y71.521
G0 X74.852 Y72.143
G0 X76 Y72.604
G1 F1800 X76.58 Y72.538 E25.63519
G1 X77.13 Y72.346 E25.70509
G1 X77.623 Y72.036 E25.77498
G1 X78.036 Y71.623 E25.84507
G1 X78.346 Y71.13 E25.91495
G1 X78.538 Y70.58 E25.98486
G1 X78.6 Y70.033 E26.05092
G1 X78.599 Y49.949 E28.461
G1 X78.538 Y49.42 E28.5249
G1 X78.346 Y48.87 E28.5948
G1 X78.036 Y48.377 E28.66469
G1 X77.623 Y47.964 E28.73478
G1 X77.13 Y47.654 E28.80466
G1 X76.58 Y47.462 E28.87457
G1 X76 Y47.396 E28.94461
G1 X75.42 Y47.462 E29.01466
G1 X74.87 Y47.654 E29.08457
G1 X74.377 Y47.964 E29.15445
G1 X73.964 Y48.377 E29.22454
G1 X73.654 Y48.87 E29.29443
G1 X73.462 Y49.42 E29.36433
G1 X73.4 Y49.967 E29.43039
G1 X73.4 Y70.033 E31.83831
G1 X73.462 Y70.58 E31.90437
G1 X73.654 Y71.13 E31.97428
G1 X73.964 Y71.623 E32.04416
G1 X74.377 Y72.036 E32.11425
G1 X74.87 Y72.346 E32.18413
G1 X75.42 Y72.538 E32.25404
G1 X76 Y72.604 E32.32409
G0 F3600 X75.786 Y74.406
G1 F1800 X75.294 Y74.557 E32.38585
G1 X74.873 Y74.854 E32.44767
G1 X74.568 Y75.27 E32.50957
G1 X74.418 Y75.739 E32.56866
G1 X74.398 Y76.043 E32.60522
G1 X74.482 Y76.528 E32.66429
G1 X74.728 Y76.981 E32.72615
G1 X74.797 Y77.046 E32.73752
G1 X75.103 Y77.333 E32.78786
G1 X75.249 Y77.4 E32.80714
G1 X75.104 Y77.4 E32.80816
G1 X74.684 Y77.4 E32.83908
G1 X67.343 Y77.401 E33.72
G1 X66.905 Y77.472 E33.77324
G1 X66.458 Y77.699 E33.8334
G1 X66.102 Y78.055 E33.89382
G1 X65.874 Y78.503 E33.95414
G1 X65.803 Y78.953 E34.00881
G1 X65.803 Y79.952 E34.12869
G1 X65.776 Y80.123 E34.14946
G1 X65.72 Y80.232 E34.16417
G1 X65.635 Y80.317 E34.17859
G1 X65.526 Y80.373 E34.1933
G1 X65.355 Y80.4 E34.21407
G1 X43.564 Y80.4 E36.82899
G1 X42.957 Y80.448 E36.90206
G1 X42.313 Y80.603 E36.98155
G1 X41.72 Y80.854 E37.05882
G1 X41.174 Y81.191 E37.13581
G1 X41.163 Y81.198 E37.13738
G1 X41.123 Y81.232 E37.14368
G1 X40.807 Y81.508 E37.19403
G1 X40.675 Y81.622 E37.21496
G1 X40.637 Y81.663 E37.22166
G1 X40.664 Y81.616 E37.2217
G1 X40.76 Y81.455 E37.22493
G1 X40.834 Y81.125 E37.24271
G1 X40.874 Y80.947 E37.26273
G1 X40.873 Y80.934 E37.2643
G1 X40.83 Y80.427 E37.32536
G1 X40.631 Y79.944 E37.38804
G1 X40.296 Y79.546 E37.45047
G1 X39.858 Y79.266 E37.51285
G1 X39.355 Y79.133 E37.57528
G1 X38.926 Y79.152 E37.62682
G1 X38.834 Y79.156 E37.63787
G1 X38.377 Y79.324 E37.69629
G1 X38.659 Y79.003 E37.7098
G1 X38.788 Y78.856 E37.72938
G1 X38.836 Y78.779 E37.73909
G1 X39.134 Y78.305 E37.80628
G1 X39.389 Y77.704 E37.88462
G1 X39.545 Y77.074 E37.9625
G1 X39.599 Y76.439 E38.03898
G1 X39.6 Y43.564 E41.98398
G1 X39.552 Y42.957 E42.05704
G1 X39.397 Y42.313 E42.13653
G1 X39.146 Y41.72 E42.2138
G1 X38.838 Y41.222 E42.28407
G1 X38.802 Y41.163 E42.29236
G1 X38.53 Y40.85 E42.34212
G1 X38.378 Y40.675 E42.36994
G1 X38.337 Y40.638 E42.37657
G1 X38.384 Y40.663 E42.37661
G1 X38.607 Y40.782 E42.38241
G1 X38.864 Y40.83 E42.39648
G1 X38.932 Y40.842 E42.40418
G1 X39.119 Y40.878 E42.42703
G1 X39.636 Y40.813 E42.48956
G1 X40.111 Y40.597 E42.55218
G1 X40.496 Y40.246 E42.6147
G1 X40.76 Y39.798 E42.6771
G1 X40.874 Y39.29 E42.73957
G1 X40.841 Y38.903 E42.78618
G1 X40.834 Y38.815 E42.79678
G1 X40.83 Y38.77 E42.8022
G1 X40.667 Y38.373 E42.8537
G1 X40.662 Y38.362 E42.85515
G1 X40.67 Y38.371 E42.85521
G1 X40.958 Y38.624 E42.86541
G1 X41.144 Y38.788 E42.8889
G1 X41.219 Y38.835 E42.89847
G1 X41.695 Y39.134 E42.96592
G1 X42.296 Y39.389 E43.04427
G1 X42.926 Y39.545 E43.12215
G1 X43.561 Y39.599 E43.19862
G1 X76.436 Y39.6 E47.14362
G1 X77.043 Y39.552 E47.21669
G1 X77.687 Y39.397 E47.29618
G1 X78.28 Y39.146 E47.37345
G1 X78.775 Y38.84 E47.44328
G1 X78.837 Y38.802 E47.45201
G1 X78.963 Y38.693 E47.472
G1 X79.284 Y38.414 E47.52304
G1 X79.325 Y38.378 E47.52959
G1 X79.331 Y38.371 E47.53069
G1 X79.294 Y38.424 E47.53143
G1 X79.146 Y38.902 E47.55748
G1 X79.142 Y38.975 E47.56625
G1 X79.126 Y39.21 E47.59452
G1 X79.206 Y39.698 E47.65386
G1 X79.439 Y40.164 E47.71638
G1 X79.806 Y40.537 E47.77917
G1 X80.264 Y40.782 E47.8415
G1 X80.776 Y40.878 E47.90401
G1 X81.086 Y40.839 E47.9415
G1 X81.172 Y40.829 E47.95189
G1 X81.293 Y40.813 E47.96654
G1 X81.621 Y40.663 E48.00982
G1 X81.646 Y40.652 E48.0131
G1 X81.626 Y40.672
G1 X81.412 Y40.916 E48.02018
G1 X81.212 Y41.144 E48.04671
G1 X81.166 Y41.217 E48.0561
G1 X80.866 Y41.695 E48.12382
G1 X80.611 Y42.296 E48.20217
G1 X80.455 Y42.926 E48.28005
G1 X80.401 Y43.561 E48.35652
G1 X80.4 Y76.436 E52.30152
G1 X80.448 Y77.043 E52.37459
G1 X80.603 Y77.687 E52.45408
G1 X80.854 Y78.28 E52.53135
G1 X81.176 Y78.801 E52.60485
G1 X81.198 Y78.837 E52.60991
G1 X81.264 Y78.913 E52.62199
G1 X81.546 Y79.237 E52.67353
G1 X81.622 Y79.325 E52.68749
G1 X81.658 Y79.357 E52.69327
G1 X81.618 Y79.332
G1 X81.514 Y79.266 E52.69477
G1 X81.113 Y79.16 E52.71616
G1 X81.013 Y79.133 E52.72621
G1 X80.97 Y79.134 E52.73137
G1 X80.491 Y79.156 E52.78891
G1 X80.002 Y79.336 E52.85144
G1 X79.59 Y79.656 E52.91404
G1 X79.294 Y80.081 E52.97619
G1 X79.146 Y80.559 E53.03624
G1 X79.126 Y80.866 E53.07316
G1 X79.161 Y81.078 E53.09894
G1 X79.171 Y81.143 E53.10684
G1 X79.206 Y81.355 E53.13262
G1 X79.334 Y81.611 E53.16697
G1 X79.358 Y81.658 E53.1733
G1 X79.319 Y81.619
G1 X79.125 Y81.45 E53.1778
G1 X78.836 Y81.198 E53.20952
G1 X78.78 Y81.164 E53.21683
G1 X78.267 Y80.848 E53.28914
G1 X77.67 Y80.601 E53.36667
G1 X77.2 Y80.447 E53.42602
G1 X77.115 Y80.379 E53.43908
G1 X77.048 Y80.279 E53.45352
G1 X77.006 Y80.139 E53.47106
G1 X77.003 Y80.096 E53.47623
G1 X77.002 Y78.939 E53.61507
G1 X76.931 Y78.502 E53.6682
G1 X76.704 Y78.055 E53.72836
G1 X76.405 Y77.756 E53.7791
G1 X76.367 Y77.718 E53.78555
G1 X76.348 Y77.699 E53.78878
G1 X76.139 Y77.593 E53.8169
G1 X76.316 Y77.555 E53.81947
G1 X76.588 Y77.496 E53.84539
G1 X76.635 Y77.468 E53.85139
G1 X77.031 Y77.233 E53.90665
G1 X77.369 Y76.841 E53.96876
G1 X77.565 Y76.365 E54.03053
G1 X77.601 Y75.851 E54.09237
G1 X77.47 Y75.351 E54.15439
G1 X77.19 Y74.921 E54.21597
G1 X76.786 Y74.599 E54.27796
G1 X76.303 Y74.422 E54.33969
G1 X75.786 Y74.406 E54.40176
G0 F3600 X73.8 Y71.059
G0 X71.769 Y59.629
G1 F1800 X71.554 Y59.134 E54.46652
G1 X71.208 Y58.748 E54.52873
G1 X70.761 Y58.493 E54.59048
G1 X70.255 Y58.394 E54.65235
G1 X69.743 Y58.458 E54.71427
G1 X69.278 Y58.683 E54.77626
G1 X68.911 Y59.041 E54.83778
G1 X68.671 Y59.499 E54.89983
G1 X68.592 Y60.01 E54.96188
G1 X68.677 Y60.52 E55.02392
G1 X68.922 Y60.975 E55.08594
G1 X69.295 Y61.328 E55.14756
G1 X69.762 Y61.547 E55.20946
G1 X70.273 Y61.606 E55.27119
G1 X70.78 Y61.5 E55.33334
G1 X71.225 Y61.239 E55.39525
G1 X71.564 Y60.85 E55.45717
G1 X71.772 Y60.352 E55.52193
G1 X71.769 Y59.629 E55.60869
G0 F3600 X71.769 Y51.629
G1 F1800 X71.554 Y51.134 E55.67345
G1 X71.208 Y50.748 E55.73566
G1 X70.761 Y50.493 E55.79741
G1 X70.255 Y50.394 E55.85928
G1 X69.743 Y50.458 E55.9212
G1 X69.278 Y50.683 E55.98319
G1 X68.911 Y51.041 E56.04471
G1 X68.671 Y51.499 E56.10676
G1 X68.592 Y52.01 E56.16881
G1 X68.677 Y52.52 E56.23085
G1 X68.922 Y52.975 E56.29287
G1 X69.295 Y53.328 E56.35449
G1 X69.762 Y53.547 E56.41639
G1 X70.273 Y53.606 E56.47812
G1 X70.78 Y53.5 E56.54027
G1 X71.225 Y53.239 E56.60218
G1 X71.564 Y52.85 E56.6641
G1 X71.772 Y52.352 E56.72886
G1 X71.769 Y51.629 E56.81562
G0 F3600 X72.269 Y44.629
G1 F1800 X72.054 Y44.134 E56.88038
G1 X71.708 Y43.748 E56.94259
G1 X71.261 Y43.493 E57.00434
G1 X70.755 Y43.394 E57.06621
G1 X70.243 Y43.458 E57.12813
G1 X69.778 Y43.683 E57.19012
G1 X69.411 Y44.041 E57.25164
G1 X69.171 Y44.499 E57.31369
G1 X69.092 Y45.01 E57.37574
G1 X69.177 Y45.52 E57.43778
G1 X69.422 Y45.975 E57.4998
G1 X69.795 Y46.328 E57.56142
G1 X70.262 Y46.547 E57.62332
G1 X70.773 Y46.606 E57.68505
G1 X71.28 Y46.5 E57.7472
G1 X71.725 Y46.239 E57.80911
G1 X72.064 Y45.85 E57.87103
G1 X72.272 Y45.352 E57.93579
G1 X72.269 Y44.629 E58.02255
G0 F3600 X75.786 Y42.406
G1 F1800 X75.294 Y42.557 E58.08431
G1 X74.873 Y42.854 E58.14614
G1 X74.568 Y43.27 E58.20804
G1 X74.418 Y43.739 E58.26712
G1 X74.398 Y44.043 E58.30368
G1 X74.482 Y44.528 E58.36275
G1 X74.728 Y44.981 E58.42461
G1 X75.103 Y45.333 E58.48633
G1 X75.572 Y45.549 E58.54829
G1 X76.083 Y45.605 E58.60998
G1 X76.588 Y45.496 E58.67197
G1 X77.031 Y45.233 E58.73379
G1 X77.369 Y44.841 E58.7959
G1 X77.565 Y44.365 E58.85768
G1 X77.601 Y43.851 E58.91951
G1 X77.47 Y43.351 E58.98153
G1 X77.19 Y42.921 E59.04311
G1 X76.786 Y42.599 E59.1051
G1 X76.303 Y42.422 E59.16683
G1 X75.786 Y42.406 E59.2289
G0 F3600 X75.84 Y42.808
;TYPE:WALL-OUTER
G1 F1800 X75.472 Y42.921 E59.2751
G1 X75.157 Y43.143 E59.32134
G1 X74.929 Y43.454 E59.36762
G1 X74.814 Y43.814 E59.41297
G1 X74.8 Y44.022 E59.43798
G1 X74.865 Y44.395 E59.48342
G1 X75.049 Y44.734 E59.5297
G1 X75.329 Y44.997 E59.5758
G1 X75.68 Y45.158 E59.62214
G1 X76.062 Y45.2 E59.66826
G1 X76.44 Y45.119 E59.71465
G1 X76.771 Y44.922 E59.76087
G1 X77.024 Y44.629 E59.80732
G1 X77.17 Y44.273 E59.8535
G1 X77.197 Y43.889 E59.89969
G1 X77.099 Y43.515 E59.94609
G1 X76.89 Y43.193 E59.99215
G1 X76.588 Y42.952 E60.03852
G1 X76.226 Y42.82 E60.08475
G1 X75.84 Y42.808 E60.1311
G0 F3600 X75.649 Y42.866
G0 X75.562 Y42.579
G0 X72.144 Y44.595
G0 X71.869 Y44.713
G1 F1800 X71.713 Y44.352 E60.17829
G1 X71.454 Y44.063 E60.22486
G1 X71.12 Y43.873 E60.27097
G1 X70.741 Y43.799 E60.31731
G1 X70.358 Y43.847 E60.36363
G1 X70.011 Y44.015 E60.40989
G1 X69.736 Y44.283 E60.45597
G1 X69.556 Y44.626 E60.50245
G1 X69.497 Y45.007 E60.54872
G1 X69.561 Y45.389 E60.5952
G1 X69.744 Y45.729 E60.64153
G1 X70.023 Y45.993 E60.68762
G1 X70.373 Y46.157 E60.73401
G1 X70.755 Y46.201 E60.78015
G1 X71.134 Y46.122 E60.82661
G1 X71.466 Y45.927 E60.87281
G1 X71.72 Y45.636 E60.91916
G1 X71.872 Y45.273 E60.96639
G1 X71.869 Y44.713 E61.03359
G0 F3600 X71.79 Y44.53
G0 X72.065 Y44.412
G0 X75.413 Y47.572
G0 X75.51 Y47.854
G1 F1800 X75.045 Y48.017 E61.09272
G1 X74.628 Y48.279 E61.15181
