;FLAVOR:UltiGCode
;TIME:4196
;MATERIAL:6032
;MATERIAL2:0
;NOZZLE_DIAMETER:0.4
;MINX:38.2
;MINY:38.2
;MINZ:0.3
;MAXX:81.8
;MAXY:81.8
;MAXZ:24.45
;Generated with Cura_SteamEngine 4.7.1
M82 ;absolute extrusion mode
G0 F3000 Y50 ;avoid prime blob
G92 E0
G92 E0
G10
;LAYER_COUNT:162
;LAYER:0
M107
;MESH:ext_shell_top.stl
G0 F3600 X52.261 Y52.596 Z0.3
;TYPE:WALL-INNER
G11
G1 F1800 X53.005 Y52.492 E0.09015
G1 X53.722 Y52.268 E0.18029
G1 X54.391 Y51.931 E0.27018
G1 X54.998 Y51.491 E0.36014
G1 X55.525 Y50.957 E0.45017
G1 X55.959 Y50.345 E0.54021
G1 X56.287 Y49.67 E0.63026
G1 X56.501 Y48.952 E0.72017
G1 X56.596 Y48.208 E0.81017
G1 X56.571 Y47.459 E0.9001
G1 X56.422 Y46.723 E0.99022
G1 X56.155 Y46.022 E1.08023
G1 X55.778 Y45.372 E1.1704
G1 X55.3 Y44.794 E1.26041
G1 X54.736 Y44.301 E1.3503
G1 X54.099 Y43.905 E1.4403
G1 X53.404 Y43.619 E1.53049
G1 X52.674 Y43.45 E1.62041
G1 X51.927 Y43.399 E1.71026
G1 X51.18 Y43.47 E1.8003
G1 X50.454 Y43.665 E1.89051
G1 X49.77 Y43.973 E1.98052
G1 X49.147 Y44.39 E2.07049
G1 X48.598 Y44.901 E2.16049
G1 X48.14 Y45.496 E2.25059
G1 X47.784 Y46.156 E2.34058
G1 X47.54 Y46.866 E2.43067
G1 X47.418 Y47.594 E2.51925
G1 X47.399 Y48.027 E2.57126
G1 X47.456 Y48.729 E2.65577
G1 X47.634 Y49.457 E2.74571
G1 X47.929 Y50.147 E2.83576
G1 X48.331 Y50.779 E2.92564
G1 X48.832 Y51.339 E3.01581
G1 X49.417 Y51.808 E3.10578
G1 X50.07 Y52.178 E3.19585
G1 X50.776 Y52.434 E3.28596
G1 X51.51 Y52.574 E3.37563
G1 X52.261 Y52.596 E3.46579
G0 F3600 X52.266 Y52.695
G0 X48.192 Y57.027
G0 X48.155 Y57.119
G1 F1800 X47.539 Y56.945 E3.5426
G1 X46.905 Y56.899 E3.61888
G1 X46.272 Y56.984 E3.69553
G1 X45.67 Y57.197 E3.77215
G1 X45.124 Y57.528 E3.84877
G1 X44.658 Y57.964 E3.92535
G1 X44.292 Y58.485 E4.00176
G1 X44.038 Y59.072 E4.07851
G1 X43.915 Y59.681 E4.15307
G1 X43.898 Y60.031 E4.19511
G1 X43.966 Y60.651 E4.26996
G1 X44.163 Y61.257 E4.34643
G1 X44.48 Y61.811 E4.42302
G1 X44.904 Y62.289 E4.4997
G1 X45.416 Y62.668 E4.57614
G1 X45.996 Y62.936 E4.65281
G1 X46.617 Y63.078 E4.72925
G1 X47.256 Y63.093 E4.80595
G1 X47.882 Y62.974 E4.88242
G1 X48.472 Y62.732 E4.95894
G1 X49 Y62.372 E5.03563
G1 X49.443 Y61.914 E5.11209
G1 X49.783 Y61.373 E5.18877
G1 X50.005 Y60.774 E5.26542
G1 X50.1 Y60.144 E5.34188
G1 X50.064 Y59.506 E5.41856
G1 X49.897 Y58.89 E5.49515
G1 X49.609 Y58.32 E5.57178
G1 X49.21 Y57.823 E5.64827
G1 X48.719 Y57.418 E5.72464
G1 X48.155 Y57.119 E5.80125
G0 F3600 X48.192 Y57.027
G0 X49.238 Y57.795
G0 X49.934 Y58.876
G0 X50.391 Y67.649
G0 X49.123 Y68.359
G0 X48.107 Y69.475
G0 X47.502 Y70.857
G0 X47.36 Y72.027
G0 X47.597 Y73.469
G0 X48.3 Y74.803
G0 X49.395 Y75.841
G0 X50.694 Y76.446
G0 X52.266 Y76.695
G0 X52.261 Y76.596
G1 F1800 X53.005 Y76.492 E5.89139
G1 X53.722 Y76.268 E5.98154
G1 X54.391 Y75.931 E6.07143
G1 X54.998 Y75.491 E6.16139
G1 X55.525 Y74.957 E6.25142
G1 X55.959 Y74.345 E6.34145
G1 X56.287 Y73.67 E6.43151
G1 X56.501 Y72.952 E6.52141
G1 X56.596 Y72.208 E6.61142
G1 X56.571 Y71.459 E6.70135
G1 X56.422 Y70.723 E6.79146
G1 X56.155 Y70.022 E6.88148
G1 X55.778 Y69.372 E6.97165
G1 X55.3 Y68.794 E7.06165
G1 X54.736 Y68.301 E7.15154
G1 X54.099 Y67.905 E7.24155
G1 X53.404 Y67.619 E7.33174
G1 X52.674 Y67.45 E7.42165
G1 X51.927 Y67.399 E7.5115
G1 X51.18 Y67.47 E7.60155
G1 X50.454 Y67.665 E7.69175
G1 X49.77 Y67.973 E7.78177
G1 X49.147 Y68.39 E7.87173
G1 X48.598 Y68.901 E7.96173
G1 X48.14 Y69.496 E8.05184
G1 X47.784 Y70.156 E8.14182
G1 X47.54 Y70.866 E8.23191
G1 X47.418 Y71.594 E8.32049
G1 X47.399 Y72.027 E8.3725
G1 X47.456 Y72.729 E8.45702
G1 X47.634 Y73.457 E8.54695
G1 X47.929 Y74.147 E8.637
G1 X48.331 Y74.779 E8.72689
G1 X48.832 Y75.339 E8.81705
G1 X49.417 Y75.808 E8.90703
G1 X50.07 Y76.178 E8.99709
G1 X50.776 Y76.434 E9.08721
G1 X51.51 Y76.574 E9.17688
G1 X52.261 Y76.596 E9.26704
G0 F3600 X52.266 Y76.695
G0 X68.266 Y76.695
G0 X68.261 Y76.596
G1 F1800 X69.005 Y76.492 E9.35719
G1 X69.722 Y76.268 E9.44733
G1 X70.391 Y75.931 E9.53722
G1 X70.998 Y75.491 E9.62718
G1 X71.525 Y74.957 E9.71721
G1 X71.959 Y74.345 E9.80724
G1 X72.287 Y73.67 E9.8973
G1 X72.501 Y72.952 E9.98721
G1 X72.596 Y72.208 E10.07721
G1 X72.571 Y71.459 E10.16714
G1 X72.422 Y70.723 E10.25725
G1 X72.155 Y70.022 E10.34727
G1 X71.778 Y69.372 E10.43744
G1 X71.3 Y68.794 E10.52744
G1 X70.736 Y68.301 E10.61733
G1 X70.099 Y67.905 E10.70734
G1 X69.404 Y67.619 E10.79753
G1 X68.674 Y67.45 E10.88744
G1 X67.927 Y67.399 E10.97729
G1 X67.18 Y67.47 E11.06734
G1 X66.454 Y67.665 E11.15754
G1 X65.77 Y67.973 E11.24756
G1 X65.147 Y68.39 E11.33752
G1 X64.598 Y68.901 E11.42753
G1 X64.14 Y69.496 E11.51763
G1 X63.784 Y70.156 E11.60762
G1 X63.54 Y70.866 E11.69771
G1 X63.418 Y71.594 E11.78628
G1 X63.399 Y72.027 E11.83829
G1 X63.456 Y72.729 E11.92281
G1 X63.634 Y73.457 E12.01274
G1 X63.929 Y74.147 E12.10279
G1 X64.331 Y74.779 E12.19268
G1 X64.832 Y75.339 E12.28284
G1 X65.417 Y75.808 E12.37282
G1 X66.07 Y76.178 E12.46288
G1 X66.776 Y76.434 E12.553
G1 X67.51 Y76.574 E12.64267
G1 X68.261 Y76.596 E12.73283
G0 F3600 X68.266 Y76.695
G0 X69.737 Y76.305
G0 X71.024 Y75.521
G0 X71.993 Y74.365
G0 X72.54 Y72.96
G0 X72.61 Y71.455
G0 X68.671 Y59.282
G0 X68.572 Y59.289
G1 F1800 X68.506 Y58.732 E12.80014
G1 X68.321 Y57.824 E12.91133
G1 X68.16 Y57.288 E12.97849
G1 X67.823 Y56.427 E13.08945
G1 X67.574 Y55.925 E13.15669
G1 X67.091 Y55.133 E13.26801
G1 X66.759 Y54.682 E13.33521
G1 X66.148 Y53.987 E13.44626
G1 X65.743 Y53.599 E13.51356
G1 X65.022 Y53.018 E13.62468
G1 X64.555 Y52.706 E13.69207
G1 X63.745 Y52.258 E13.80315
G1 X63.232 Y52.031 E13.87047
G1 X62.357 Y51.73 E13.98151
G1 X61.813 Y51.593 E14.04882
G1 X60.9 Y51.448 E14.15976
G1 X60.341 Y51.406 E14.22703
G1 X59.413 Y51.419 E14.3384
G1 X58.855 Y51.476 E14.40571
G1 X57.945 Y51.648 E14.51684
G1 X57.407 Y51.801 E14.58396
G1 X56.539 Y52.127 E14.69522
G1 X56.035 Y52.369 E14.76231
G1 X55.236 Y52.839 E14.87355
G1 X54.781 Y53.164 E14.94065
G1 X54.076 Y53.765 E15.05182
G1 X53.681 Y54.165 E15.11928
G1 X53.091 Y54.879 E15.23043
G1 X52.773 Y55.34 E15.29763
G1 X52.313 Y56.143 E15.40868
G1 X52.078 Y56.652 E15.47596
G1 X51.765 Y57.524 E15.58713
G1 X51.62 Y58.066 E15.65446
G1 X51.462 Y58.978 E15.76553
G1 X51.412 Y59.528 E15.8318
G1 X51.4 Y60.032 E15.8923
G1 X51.453 Y60.956 E16.00336
G1 X51.533 Y61.511 E16.07065
G1 X51.745 Y62.414 E16.18196
G1 X51.92 Y62.946 E16.24916
G1 X52.283 Y63.798 E16.3603
G1 X52.548 Y64.293 E16.42767
G1 X53.052 Y65.068 E16.53861
G1 X53.397 Y65.511 E16.60599
G1 X54.028 Y66.189 E16.71713
G1 X54.444 Y66.564 E16.78434
G1 X55.181 Y67.124 E16.89541
G1 X55.657 Y67.423 E16.96287
G1 X56.479 Y67.846 E17.0738
G1 X56.998 Y68.059 E17.14112
G1 X57.883 Y68.334 E17.25233
G1 X58.429 Y68.455 E17.31944
G1 X59.348 Y68.574 E17.43064
G1 X59.907 Y68.599 E17.49779
G1 X60.833 Y68.56 E17.60901
G1 X61.389 Y68.487 E17.6763
G1 X62.294 Y68.289 E17.78747
G1 X62.829 Y68.122 E17.85472
G1 X63.686 Y67.771 E17.96586
G1 X64.184 Y67.514 E18.0331
G1 X64.968 Y67.021 E18.14424
G1 X65.415 Y66.681 E18.21163
G1 X66.102 Y66.061 E18.32268
G1 X66.484 Y65.65 E18.39001
G1 X67.054 Y64.92 E18.50116
G1 X67.359 Y64.45 E18.56839
G1 X67.795 Y63.633 E18.67952
G1 X68.015 Y63.118 E18.74672
G1 X68.303 Y62.237 E18.85795
G1 X68.432 Y61.692 E18.92515
G1 X68.564 Y60.775 E19.03633
G1 X68.597 Y60.217 E19.1034
G1 X68.572 Y59.289 E19.2148
G0 F3600 X68.671 Y59.282
G0 X71.1 Y57.497
G0 X72.263 Y56.946
G0 X74.192 Y57.027
G0 X74.155 Y57.119
G1 F1800 X73.539 Y56.945 E19.29162
G1 X72.905 Y56.899 E19.3679
G1 X72.272 Y56.984 E19.44454
G1 X71.67 Y57.197 E19.52117
G1 X71.124 Y57.528 E19.59779
G1 X70.658 Y57.964 E19.67437
G1 X70.292 Y58.485 E19.75077
G1 X70.038 Y59.072 E19.82752
G1 X69.915 Y59.681 E19.90208
G1 X69.898 Y60.031 E19.94413
G1 X69.966 Y60.651 E20.01897
G1 X70.163 Y61.257 E20.09544
G1 X70.48 Y61.811 E20.17203
G1 X70.904 Y62.289 E20.24871
G1 X71.416 Y62.668 E20.32515
G1 X71.996 Y62.936 E20.40182
G1 X72.617 Y63.078 E20.47826
G1 X73.256 Y63.093 E20.55496
G1 X73.882 Y62.974 E20.63143
G1 X74.472 Y62.732 E20.70795
G1 X75 Y62.372 E20.78464
G1 X75.443 Y61.914 E20.8611
G1 X75.783 Y61.373 E20.93778
G1 X76.005 Y60.774 E21.01444
G1 X76.1 Y60.144 E21.09089
G1 X76.064 Y59.506 E21.16757
G1 X75.897 Y58.89 E21.24416
G1 X75.609 Y58.32 E21.3208
G1 X75.21 Y57.823 E21.39728
G1 X74.719 Y57.418 E21.47366
G1 X74.155 Y57.119 E21.55026
G0 F3600 X74.192 Y57.027
G0 X68.266 Y52.695
G0 X68.261 Y52.596
G1 F1800 X69.005 Y52.492 E21.64041
G1 X69.722 Y52.268 E21.73055
G1 X70.391 Y51.931 E21.82044
G1 X70.998 Y51.491 E21.9104
G1 X71.525 Y50.957 E22.00043
G1 X71.959 Y50.345 E22.09047
G1 X72.287 Y49.67 E22.18052
G1 X72.501 Y48.952 E22.27043
G1 X72.596 Y48.208 E22.36043
G1 X72.571 Y47.459 E22.45036
G1 X72.422 Y46.723 E22.54047
G1 X72.155 Y46.022 E22.63049
G1 X71.778 Y45.372 E22.72066
G1 X71.3 Y44.794 E22.81066
G1 X70.736 Y44.301 E22.90056
G1 X70.099 Y43.905 E22.99056
G1 X69.404 Y43.619 E23.08075
G1 X68.674 Y43.45 E23.17067
G1 X67.927 Y43.399 E23.26051
G1 X67.18 Y43.47 E23.35056
G1 X66.454 Y43.665 E23.44077
G1 X65.77 Y43.973 E23.53078
G1 X65.147 Y44.39 E23.62075
G1 X64.598 Y44.901 E23.71075
G1 X64.14 Y45.496 E23.80085
G1 X63.784 Y46.156 E23.89084
G1 X63.54 Y46.866 E23.98093
G1 X63.418 Y47.594 E24.06951
G1 X63.399 Y48.027 E24.12152
G1 X63.456 Y48.729 E24.20603
G1 X63.634 Y49.457 E24.29597
G1 X63.929 Y50.147 E24.38602
G1 X64.331 Y50.779 E24.4759
G1 X64.832 Y51.339 E24.56607
G1 X65.417 Y51.808 E24.65604
G1 X66.07 Y52.178 E24.74611
G1 X66.776 Y52.434 E24.83622
G1 X67.51 Y52.574 E24.92589
G1 X68.261 Y52.596 E25.01605
G0 F3600 X68.266 Y52.695
G0 X69.737 Y52.305
G0 X70.906 Y51.606
G0 X81.308 Y41.286
G0 X81.4 Y41.248
G1 F1800 X81.4 Y78.752 E29.51653
G1 X78.752 Y81.4 E29.96591
G1 X41.248 Y81.4 E34.46639
G1 X38.6 Y78.752 E34.91577
G1 X38.6 Y41.248 E39.41625
G1 X41.248 Y38.6 E39.86563
G1 X78.752 Y38.6 E44.36611
G1 X81.4 Y41.248 E44.81549
G0 F3600 X81.8 Y41.082
;TYPE:WALL-OUTER
G1 F1800 X81.8 Y78.918 E49.35581
G1 X78.918 Y81.8 E49.8449
G1 X41.082 Y81.8 E54.38522
G1 X38.2 Y78.918 E54.87432
G1 X38.2 Y41.082 E59.41464
G1 X41.082 Y38.2 E59.90373
G1 X78.918 Y38.2 E64.44405
G1 X81.8 Y41.082 E64.93314
G0 F3600 X81.8 Y41.282
G0 X81.3 Y41.282
G0 X71.024 Y51.521
G0 X69.737 Y52.305
G0 X68.225 Y52.695
G0 X68.239 Y52.195
G1 F1800 X68.917 Y52.1 E65.01529
G1 X69.571 Y51.896 E65.0975
G1 X70.182 Y51.588 E65.17961
G1 X70.737 Y51.186 E65.26185
G1 X71.218 Y50.699 E65.34399
G1 X71.614 Y50.141 E65.42609
G1 X71.913 Y49.525 E65.50826
G1 X72.108 Y48.869 E65.59039
G1 X72.195 Y48.189 E65.67265
G1 X72.172 Y47.506 E65.75466
G1 X72.036 Y46.834 E65.83693
G1 X71.793 Y46.194 E65.91908
G1 X71.449 Y45.601 E66.00135
G1 X71.013 Y45.074 E66.08343
G1 X70.497 Y44.624 E66.16559
G1 X69.916 Y44.262 E66.24773
G1 X69.282 Y44.001 E66.33001
G1 X68.615 Y43.847 E66.41215
G1 X67.932 Y43.8 E66.49431
G1 X67.251 Y43.865 E66.5764
G1 X66.589 Y44.043 E66.65866
G1 X65.965 Y44.324 E66.74078
G1 X65.396 Y44.705 E66.82295
G1 X64.895 Y45.171 E66.90506
G1 X64.477 Y45.714 E66.98729
G1 X64.152 Y46.317 E67.06949
G1 X63.929 Y46.965 E67.15173
G1 X63.817 Y47.636 E67.23336
G1 X63.8 Y48.02 E67.27949
G1 X63.852 Y48.665 E67.35714
G1 X64.015 Y49.33 E67.4393
G1 X64.284 Y49.96 E67.5215
G1 X64.651 Y50.537 E67.60356
G1 X65.108 Y51.048 E67.68583
G1 X65.642 Y51.476 E67.76795
G1 X66.238 Y51.813 E67.85011
G1 X66.882 Y52.047 E67.93233
G1 X67.554 Y52.175 E68.01442
G1 X68.239 Y52.195 E68.09666
G0 F3600 X68.437 Y52.168
G0 X68.505 Y52.663
G0 X68.669 Y59.26
G0 X68.173 Y59.318
G1 F1800 X68.111 Y58.796 E68.15974
G1 X67.933 Y57.922 E68.26677
G1 X67.782 Y57.419 E68.32979
G1 X67.457 Y56.589 E68.43676
G1 X67.223 Y56.118 E68.49987
G1 X66.759 Y55.356 E68.60693
G1 X66.447 Y54.933 E68.67
G1 X65.859 Y54.264 E68.77688
G1 X65.479 Y53.9 E68.84003
G1 X64.785 Y53.341 E68.94696
G1 X64.347 Y53.048 E69.0102
G1 X63.567 Y52.617 E69.11714
G1 X63.086 Y52.404 E69.18026
G1 X62.243 Y52.114 E69.28724
G1 X61.733 Y51.985 E69.35037
G1 X60.853 Y51.846 E69.45728
G1 X60.329 Y51.806 E69.52034
G1 X59.436 Y51.819 E69.62751
G1 X58.913 Y51.872 E69.69059
G1 X58.037 Y52.038 E69.79759
G1 X57.532 Y52.181 E69.86057
G1 X56.696 Y52.495 E69.96773
G1 X56.223 Y52.722 E70.03069
G1 X55.454 Y53.175 E70.13779
G1 X55.027 Y53.48 E70.20076
G1 X54.349 Y54.058 E70.30767
G1 X53.978 Y54.434 E70.37106
G1 X53.41 Y55.12 E70.47793
G1 X53.112 Y55.553 E70.54101
G1 X52.669 Y56.327 E70.64803
G1 X52.448 Y56.804 E70.71111
G1 X52.147 Y57.643 E70.81807
G1 X52.011 Y58.152 E70.8813
G1 X51.859 Y59.03 E70.98822
G1 X51.812 Y59.551 E71.051
G1 X51.8 Y60.026 E71.10802
G1 X51.851 Y60.916 E71.21499
G1 X51.926 Y61.437 E71.27816
G1 X52.13 Y62.305 E71.38515
G1 X52.295 Y62.805 E71.44834
G1 X52.644 Y63.625 E71.55528
G1 X52.893 Y64.089 E71.61847
G1 X53.378 Y64.836 E71.72535
G1 X53.702 Y65.251 E71.78853
G1 X54.309 Y65.904 E71.89551
G1 X54.699 Y66.256 E71.95855
G1 X55.409 Y66.795 E72.06552
G1 X55.855 Y67.075 E72.12872
G1 X56.647 Y67.482 E72.23557
G1 X57.134 Y67.682 E72.29875
G1 X57.986 Y67.947 E72.40582
G1 X58.498 Y68.061 E72.46876
G1 X59.383 Y68.175 E72.57584
G1 X59.908 Y68.199 E72.63891
G1 X60.799 Y68.161 E72.74592
G1 X61.32 Y68.093 E72.80898
G1 X62.191 Y67.902 E72.91598
G1 X62.693 Y67.745 E72.9791
G1 X63.518 Y67.408 E73.08604
G1 X63.985 Y67.166 E73.14915
G1 X64.74 Y66.692 E73.25613
G1 X65.16 Y66.373 E73.31942
G1 X65.821 Y65.776 E73.4263
G1 X66.179 Y65.39 E73.48948
G1 X66.728 Y64.688 E73.59642
G1 X67.014 Y64.247 E73.65949
G1 X67.434 Y63.46 E73.76654
G1 X67.64 Y62.977 E73.82955
G1 X67.918 Y62.129 E73.93664
G1 X68.039 Y61.617 E73.99977
G1 X68.166 Y60.735 E74.1067
G1 X68.197 Y60.211 E74.16969
G1 X68.173 Y59.318 E74.27689
G0 F3600 X68.15 Y59.12
G0 X68.646 Y59.063
G0 X71.653 Y57.161
G0 X72.904 Y56.86
G0 X74.141 Y57.012
G0 X74.005 Y57.492
G1 F1800 X73.47 Y57.341 E74.3436
G1 X72.917 Y57.301 E74.41013
G1 X72.366 Y57.375 E74.47685
G1 X71.842 Y57.56 E74.54353
G1 X71.367 Y57.848 E74.61019
G1 X70.962 Y58.228 E74.67683
G1 X70.643 Y58.682 E74.74342
G1 X70.422 Y59.192 E74.81012
G1 X70.313 Y59.731 E74.87611
G1 X70.299 Y60.019 E74.91071
G1 X70.359 Y60.566 E74.97674
G1 X70.531 Y61.094 E75.04338
G1 X70.807 Y61.576 E75.11003
G1 X71.176 Y61.992 E75.17676
G1 X71.621 Y62.322 E75.24324
G1 X72.126 Y62.555 E75.30998
G1 X72.667 Y62.679 E75.37658
G1 X73.223 Y62.692 E75.44332
G1 X73.768 Y62.589 E75.50988
G1 X74.281 Y62.378 E75.57644
G1 X74.741 Y62.065 E75.64321
G1 X75.126 Y61.666 E75.70974
G1 X75.422 Y61.195 E75.7765
G1 X75.616 Y60.674 E75.84321
G1 X75.698 Y60.125 E75.90982
G1 X75.667 Y59.57 E75.97653
G1 X75.522 Y59.034 E76.04316
G1 X75.271 Y58.538 E76.10987
G1 X74.924 Y58.105 E76.17645
G1 X74.496 Y57.752 E76.24303
G1 X74.005 Y57.492 E76.3097
G0 F3600 X73.813 Y57.438
G0 X73.949 Y56.958
G0 X74.741 Y57.385
G0 X75.642 Y58.299
G0 X76.103 Y59.5
G0 X76.043 Y60.783
G0 X72.324 Y73.684
G0 X71.555 Y74.982
G0 X70.411 Y75.965
G0 X68.225 Y76.695
G0 X68.239 Y76.195
G1 F1800 X68.917 Y76.1 E76.39185
G1 X69.571 Y75.896 E76.47406
G1 X70.182 Y75.588 E76.55617
G1 X70.737 Y75.186 E76.63841
G1 X71.218 Y74.699 E76.72054
G1 X71.614 Y74.141 E76.80265
G1 X71.913 Y73.525 E76.88482
G1 X72.108 Y72.869 E76.96695
G1 X72.195 Y72.189 E77.04921
G1 X72.172 Y71.506 E77.13122
G1 X72.036 Y70.834 E77.21349
G1 X71.793 Y70.194 E77.29564
G1 X71.449 Y69.601 E77.37791
G1 X71.013 Y69.074 E77.45999
G1 X70.497 Y68.624 E77.54214
G1 X69.916 Y68.262 E77.62429
G1 X69.282 Y68.001 E77.70656
G1 X68.615 Y67.847 E77.78871
G1 X67.932 Y67.8 E77.87086
G1 X67.251 Y67.865 E77.95296
G1 X66.589 Y68.043 E78.03522
G1 X65.965 Y68.324 E78.11734
G1 X65.396 Y68.705 E78.19951
G1 X64.895 Y69.171 E78.28162
G1 X64.477 Y69.714 E78.36385
G1 X64.152 Y70.317 E78.44605
G1 X63.929 Y70.965 E78.52829
G1 X63.817 Y71.636 E78.60992
G1 X63.8 Y72.02 E78.65604
G1 X63.852 Y72.665 E78.7337
G1 X64.015 Y73.33 E78.81586
G1 X64.284 Y73.96 E78.89806
G1 X64.651 Y74.537 E78.98012
G1 X65.108 Y75.048 E79.06239
G1 X65.642 Y75.476 E79.14451
G1 X66.238 Y75.813 E79.22667
G1 X66.882 Y76.047 E79.30889
G1 X67.554 Y76.175 E79.39098
G1 X68.239 Y76.195 E79.47322
G0 F3600 X68.437 Y76.168
G0 X68.505 Y76.663
G0 X52.225 Y76.695
G0 X52.239 Y76.195
G1 F1800 X52.917 Y76.1 E79.55537
G1 X53.571 Y75.896 E79.63758
G1 X54.182 Y75.588 E79.71969
G1 X54.737 Y75.186 E79.80193
G1 X55.218 Y74.699 E79.88407
G1 X55.614 Y74.141 E79.96617
G1 X55.913 Y73.525 E80.04834
