;FLAVOR:UltiGCode
;TIME:598
;MATERIAL:625
;MATERIAL2:0
;NOZZLE_DIAMETER:0.4
;MINX:52.673
;MINY:52.184
;MINZ:0.3
;MAXX:67.05
;MAXY:67.415
;MAXZ:8
;Generated with Cura_SteamEngine 4.7.1
M82 ;absolute extrusion mode
G0 F3000 Y50 ;avoid prime blob
G92 E0
G92 E0
G10
;LAYER_COUNT:78
;LAYER:0
M107
G0 F3600 X57.421 Y56.767 Z0.3
;TYPE:SKIRT
G11
G1 F1800 X57.577 Y56.851 E0.02126
G1 X57.978 Y56.974 E0.07159
G1 X57.532 Y57.247 E0.13434
G1 X57.481 Y57.287 E0.14212
G1 X57.421 Y56.767 E0.20494
G0 F3600 X57.59 Y56.413
G1 F1800 X57.851 Y56.52 E0.23879
G1 X58.419 Y56.551 E0.30705
G1 X58.47 Y56.812 E0.33896
G1 X58.302 Y57.244 E0.39458
G1 X57.741 Y57.588 E0.47355
G1 X57.391 Y57.899 E0.52974
G1 X57.222 Y58.125 E0.5636
G1 X57.122 Y58.389 E0.59748
G1 X57.1 Y58.67 E0.6313
G1 X57.158 Y58.946 E0.66514
G1 X57.29 Y59.195 E0.69896
G1 X57.487 Y59.397 E0.73282
G1 X57.891 Y59.584 E0.78624
G1 X58.875 Y59.792 E0.90693
G1 X58.923 Y59.801 E0.91279
G1 X59.702 Y59.927 E1.00749
G1 X59.493 Y60.013 E1.03461
G1 X58.837 Y60.05 E1.11345
G1 X58.037 Y59.753 E1.21585
G1 X57.733 Y59.691 E1.25309
G1 X56.856 Y59.652 E1.35843
G1 X56.576 Y59.679 E1.39219
G1 X56.314 Y59.784 E1.42606
G1 X56.091 Y59.958 E1.46
G1 X55.926 Y60.187 E1.49387
G1 X55.832 Y60.452 E1.52761
G1 X55.815 Y60.734 E1.56151
G1 X55.939 Y61.138 E1.61222
G1 X56.406 Y61.975 E1.72724
G1 X56.577 Y62.2 E1.76115
G1 X56.803 Y62.368 E1.79494
G1 X57.068 Y62.465 E1.82881
G1 X57.724 Y62.501 E1.90765
G1 X57.765 Y62.548 E1.91513
G1 X57.493 Y63.365 E2.01846
G1 X57.443 Y63.643 E2.05236
G1 X57.472 Y63.923 E2.08614
G1 X57.578 Y64.185 E2.12005
G1 X57.716 Y64.368 E2.14756
G1 X58.318 Y65.004 E2.25264
G1 X58.43 Y65.225 E2.28237
G1 X58.361 Y65.222 E2.29066
G1 X57.853 Y64.817 E2.36862
G1 X57.464 Y64.169 E2.45932
G1 X57.053 Y63.243 E2.58089
G1 X57.016 Y63.169 E2.59082
G1 X56.463 Y62.159 E2.729
G1 X55.778 Y60.983 E2.89231
G1 X55.353 Y59.825 E3.04034
G1 X54.974 Y58.82 E3.16923
G1 X54.84 Y58.576 E3.20263
G1 X54.19 Y57.703 E3.33324
G1 X53.902 Y57.21 E3.40176
G1 X54.305 Y57.587 E3.46798
G1 X54.798 Y58.17 E3.5596
G1 X55.009 Y58.358 E3.59351
G1 X55.263 Y58.479 E3.62727
G1 X55.542 Y58.524 E3.66119
G1 X55.751 Y58.506 E3.68636
G1 X56.283 Y58.403 E3.75138
G1 X56.55 Y58.311 E3.78527
G1 X56.78 Y58.148 E3.8191
G1 X56.956 Y57.927 E3.853
G1 X57.063 Y57.666 E3.88685
G1 X57.085 Y57.296 E3.93133
G1 X56.936 Y56.118 E4.07382
G1 X56.918 Y56.017 E4.08613
G1 X56.715 Y55.143 E4.1938
G1 X56.613 Y54.88 E4.22765
G1 X56.442 Y54.656 E4.26147
G1 X56.12 Y54.444 E4.30773
G1 X55.163 Y54.052 E4.43183
G1 X54.612 Y53.79 E4.50505
G1 X54.848 Y53.772 E4.53345
G1 X55.693 Y54.009 E4.63876
G1 X56.156 Y54.264 E4.70219
G1 X56.435 Y54.307 E4.73607
G1 X56.724 Y54.268 E4.77106
G1 X57.169 Y54.14 E4.82663
G1 X56.941 Y54.593 E4.88748
G1 X56.852 Y54.86 E4.92126
G1 X56.84 Y55.142 E4.95513
G1 X56.945 Y55.498 E4.99967
G1 X57.206 Y56.007 E5.06831
G1 X57.369 Y56.238 E5.10223
G1 X57.59 Y56.413 E5.13606
G0 F3600 X57.881 Y56.111
G1 F1800 X58.096 Y56.151 E5.1623
G1 X58.577 Y56.151 E5.22002
G1 X58.776 Y56.296 E5.24957
G1 X58.885 Y56.85 E5.31733
G1 X58.627 Y57.515 E5.40292
G1 X57.95 Y57.929 E5.49815
G1 X57.674 Y58.182 E5.54308
G1 X57.55 Y58.361 E5.56921
G1 X57.499 Y58.574 E5.59549
G1 X57.527 Y58.79 E5.62163
G1 X57.63 Y58.982 E5.64777
G1 X57.796 Y59.124 E5.67399
G1 X57.974 Y59.193 E5.69689
G1 X58.986 Y59.406 E5.821
G1 X59.893 Y59.552 E5.93124
G1 X60.151 Y59.741 E5.96962
G1 X60.233 Y59.992 E6.0013
G1 X60.177 Y60.164 E6.02301
G1 X59.584 Y60.408 E6.09996
G1 X58.775 Y60.454 E6.19719
G1 X57.898 Y60.128 E6.30947
G1 X57.716 Y60.091 E6.33176
G1 X56.839 Y60.052 E6.4371
G1 X56.623 Y60.082 E6.46327
G1 X56.432 Y60.187 E6.48942
G1 X56.291 Y60.354 E6.51565
G1 X56.219 Y60.56 E6.54184
G1 X56.226 Y60.778 E6.56801
G1 X56.288 Y60.943 E6.58916
G1 X56.755 Y61.78 E6.70418
G1 X56.894 Y61.948 E6.73034
G1 X57.084 Y62.056 E6.75657
G1 X57.262 Y62.088 E6.77827
G1 X57.859 Y62.105 E6.84994
G1 X58.098 Y62.279 E6.88542
G1 X58.186 Y62.55 E6.91961
G1 X57.873 Y63.491 E7.03861
G1 X57.843 Y63.707 E7.06478
G1 X57.892 Y63.92 E7.09101
G1 X58.006 Y64.093 E7.11587
G1 X58.65 Y64.773 E7.22826
G1 X58.892 Y65.251 E7.29255
G1 X58.819 Y65.475 E7.32082
G1 X58.6 Y65.635 E7.35337
G1 X58.214 Y65.615 E7.39975
G1 X57.547 Y65.085 E7.50198
G1 X57.106 Y64.35 E7.60484
G1 X56.687 Y63.406 E7.72878
G1 X56.665 Y63.361 E7.73479
G1 X56.117 Y62.36 E7.87173
G1 X55.413 Y61.152 E8.03951
G1 X54.978 Y59.966 E8.1911
G1 X54.599 Y58.961 E8.31999
G1 X54.519 Y58.815 E8.33997
G1 X53.853 Y57.921 E8.47375
G1 X53.37 Y57.092 E8.58888
G1 X53.436 Y56.888 E8.61461
G1 X53.658 Y56.726 E8.64759
G1 X53.983 Y56.737 E8.68661
G1 X54.593 Y57.31 E8.78704
G1 X55.103 Y57.912 E8.88172
G1 X55.272 Y58.05 E8.9079
G1 X55.479 Y58.118 E8.93405
G1 X55.675 Y58.113 E8.95757
G1 X56.207 Y58.01 E9.0226
G1 X56.41 Y57.93 E9.04878
G1 X56.571 Y57.783 E9.07494
G1 X56.669 Y57.588 E9.10113
G1 X56.688 Y57.346 E9.13026
G1 X56.539 Y56.168 E9.27275
G1 X56.528 Y56.107 E9.28019
G1 X56.325 Y55.233 E9.38786
G1 X56.238 Y55.033 E9.41403
G1 X55.968 Y54.814 E9.45575
G1 X55.003 Y54.419 E9.58088
G1 X54.293 Y54.082 E9.67519
G1 X54.188 Y53.801 E9.71118
G1 X54.273 Y53.541 E9.74401
G1 X54.505 Y53.372 E9.77845
G1 X54.903 Y53.372 E9.82621
G1 X55.861 Y53.641 E9.94562
G1 X56.32 Y53.893 E10.00845
G1 X56.613 Y53.884 E10.04363
G1 X57.477 Y53.635 E10.15153
G1 X57.629 Y53.746 E10.17411
G1 X57.702 Y53.971 E10.2025
G1 X57.299 Y54.773 E10.31021
G1 X57.238 Y54.982 E10.33633
G1 X57.301 Y55.316 E10.37712
G1 X57.562 Y55.825 E10.44576
G1 X57.695 Y55.998 E10.47195
G1 X57.881 Y56.111 E10.49806
G0 F3600 X58.007 Y55.73
G1 F1800 X58.096 Y55.751 E10.50904
G1 X58.706 Y55.751 E10.58224
G1 X59.139 Y56.066 E10.64649
G1 X59.3 Y56.886 E10.74677
G1 X58.951 Y57.785 E10.86249
G1 X58.159 Y58.27 E10.97394
G1 X57.957 Y58.465 E11.00763
G1 X57.9 Y58.576 E11.0226
G1 X57.921 Y58.699 E11.03758
G1 X58.057 Y58.802 E11.05805
G1 X59.05 Y59.011 E11.17982
G1 X60.049 Y59.172 E11.30125
G1 X60.491 Y59.494 E11.36687
G1 X60.654 Y59.992 E11.42975
G1 X60.5 Y60.464 E11.48933
G1 X59.675 Y60.803 E11.59636
G1 X58.714 Y60.858 E11.71187
G1 X57.759 Y60.503 E11.83413
G1 X57.698 Y60.49 E11.84162
G1 X56.821 Y60.451 E11.94696
G1 X56.701 Y60.485 E11.96193
G1 X56.624 Y60.583 E11.97688
G1 X56.637 Y60.748 E11.99674
G1 X57.104 Y61.585 E12.11176
G1 X57.273 Y61.688 E12.13551
G1 X57.993 Y61.708 E12.22194
G1 X58.439 Y62.033 E12.28816
G1 X58.607 Y62.551 E12.35351
G1 X58.252 Y63.618 E12.48845
G1 X58.252 Y63.743 E12.50345
G1 X58.297 Y63.818 E12.51395
G1 X58.98 Y64.54 E12.63321
G1 X59.324 Y65.218 E12.72445
G1 X59.16 Y65.721 E12.78793
G1 X58.721 Y66.04 E12.85305
G1 X58.065 Y66.008 E12.93187
G1 X57.241 Y65.353 E13.05818
G1 X56.754 Y64.54 E13.1719
G1 X56.322 Y63.568 E13.29955
G1 X55.772 Y62.561 E13.43723
G1 X55.05 Y61.321 E13.60942
G1 X54.604 Y60.107 E13.76462
G1 X54.225 Y59.102 E13.89351
G1 X54.198 Y59.054 E13.90012
G1 X53.524 Y58.148 E14.03562
G1 X52.934 Y57.137 E14.17609
G1 X53.095 Y56.642 E14.23856
G1 X53.536 Y56.321 E14.30401
G1 X54.146 Y56.342 E14.37725
G1 X54.886 Y57.037 E14.49908
G1 X55.408 Y57.653 E14.59597
G1 X55.515 Y57.719 E14.61105
G1 X55.599 Y57.72 E14.62114
G1 X56.131 Y57.617 E14.68616
G1 X56.24 Y57.557 E14.70109
G1 X56.291 Y57.396 E14.72136
G1 X56.139 Y56.198 E14.86627
G1 X55.936 Y55.324 E14.97394
G1 X55.817 Y55.184 E14.99599
G1 X54.843 Y54.785 E15.1223
G1 X53.974 Y54.372 E15.23776
G1 X53.765 Y53.81 E15.30971
G1 X53.932 Y53.295 E15.37468
G1 X54.376 Y52.972 E15.44056
G1 X54.957 Y52.972 E15.51028
G1 X56.029 Y53.273 E15.6439
G1 X56.338 Y53.474 E15.68813
G1 X56.502 Y53.499 E15.70804
G1 X57.553 Y53.196 E15.8393
G1 X57.97 Y53.5 E15.90122
G1 X58.133 Y54.002 E15.96456
G1 X57.656 Y54.952 E16.09212
G1 X57.657 Y55.133 E16.11384
G1 X57.918 Y55.642 E16.18248
G1 X58.007 Y55.73 E16.1975
G0 F3600 X56.71 Y58.673
G1 F1800 X56.719 Y58.845 E16.21817
G1 X56.865 Y59.253 E16.27017
G1 X56.541 Y59.277 E16.30916
G1 X56.223 Y59.381 E16.34931
G1 X55.939 Y59.556 E16.38934
G1 X55.75 Y59.748 E16.42167
G1 X55.434 Y58.906 E16.52959
G1 X55.827 Y58.898 E16.57676
G1 X56.359 Y58.795 E16.64178
G1 X56.71 Y58.673 E16.68638
G0 F3600 X61.63 Y59.618
G1 F1800 X61.97 Y59.794 E16.73232
G1 X62.075 Y60.056 E16.76619
G1 X61.8 Y59.898 E16.80425
G1 X61.679 Y59.937 E16.8195
G1 X61.052 Y60.398 E16.91289
G1 X61.051 Y60.392 E16.91362
G1 X61.586 Y59.726 E17.01613
G1 X61.63 Y59.618 E17.03013
G10
;MESH:balancing_wheel_2.stl
G0 F3600 X63.844 Y60.039
G0 X64.66 Y60.127
G0 X64.66 Y60.027
;TYPE:WALL-INNER
G11
G1 F1800 X66.45 Y60.025 E17.24493
G1 X66.65 Y60.025 E17.26893
G1 X66.65 Y60.225 E17.28447
G1 X66.65 Y65.204 E17.88195
G1 X64.029 Y65.206 E18.19647
G1 X63.829 Y65.206 E18.22047
G1 X63.829 Y65.006 E18.23601
G1 X63.831 Y61.007 E18.71589
G1 X63.83 Y60.225 E18.80973
G1 X63.83 Y60.025 E18.83373
G1 X64.03 Y60.025 E18.84927
G1 X64.66 Y60.027 E18.92487
G0 F3600 X64.66 Y59.627
;TYPE:WALL-OUTER
G1 F1800 X66.728 Y59.625 E19.17303
G1 X66.806 Y59.625 E19.18239
G1 X67.05 Y59.626 E19.21167
G1 X67.05 Y59.704 E19.22103
G1 X67.05 Y65.604 E19.92903
G1 X63.629 Y65.606 E20.33955
G1 X63.429 Y65.606 E20.36355
G1 X63.429 Y65.406 E20.37909
G1 X63.431 Y61.007 E20.90697
G1 X63.429 Y59.686 E21.06549
G1 X63.429 Y59.626 E21.07269
G1 X63.708 Y59.625 E21.10617
G1 X63.768 Y59.625 E21.11337
G1 X64.66 Y59.627 E21.22041
G0 F3600 X64.86 Y59.627
G0 X64.659 Y60.417
;TYPE:SKIN
G1 F1800 X66.26 Y60.415 E21.41253
G1 X66.26 Y64.814 E21.94041
G1 X64.219 Y64.816 E22.18533
G1 X64.221 Y61.007 E22.64241
G1 X64.22 Y60.416 E22.71333
G1 X64.659 Y60.417 E22.76601
G0 F3600 X66.079 Y60.987
G1 F1800 X65.686 Y60.595 E22.83262
G0 F3600 X65.122 Y60.596
G1 F1800 X66.079 Y61.553 E22.99503
G0 F3600 X66.079 Y62.119
G1 F1800 X64.556 Y60.596 E23.25349
G0 F3600 X64.399 Y61.004
G1 F1800 X66.079 Y62.685 E23.53868
G0 F3600 X66.079 Y63.25
G1 F1800 X64.399 Y61.57 E23.82379
G0 F3600 X64.399 Y62.136
G1 F1800 X66.079 Y63.816 E24.10889
G0 F3600 X66.079 Y64.382
G1 F1800 X64.399 Y62.701 E24.39408
G0 F3600 X64.399 Y63.267
G1 F1800 X65.765 Y64.633 E24.6259
G0 F3600 X65.2 Y64.634
G1 F1800 X64.399 Y63.833 E24.76183
G0 F3600 X64.399 Y64.399
G1 F1800 X64.634 Y64.634 E24.80172
G10
;MESH:NONMESH
G0 F600 X64.634 Y64.634 Z0.4
G0 F3600 X63.851 Y61.007
G0 X62.566 Y61.007
G0 X53.935 Y53.303
;TIME_ELAPSED:11.692477
;LAYER:1
M106 S255
;TYPE:SUPPORT
G11
G1 F2205.1 X54.379 Y52.981 E24.82365
G1 X54.957 Y52.981 E24.84677
G1 X55.957 Y53.264 E24.88834
G1 X56.438 Y53.461 E24.90914
G1 X57.557 Y53.123 E24.95589
G1 X57.965 Y53.419 E24.97606
G1 X58.127 Y54.034 E25.0015
G1 X57.681 Y55.076 E25.04683
G1 X57.946 Y55.68 E25.07322
G1 X58.681 Y55.68 E25.10262
G1 X59.102 Y55.986 E25.12343
G1 X59.223 Y56.999 E25.16424
G1 X58.863 Y57.904 E25.2032
G1 X57.761 Y58.422 E25.25191
G1 X57.776 Y58.692 E25.26272
G1 X58.985 Y59.102 E25.31379
G1 X59.972 Y59.183 E25.3534
G1 X60.402 Y59.496 E25.37468
G1 X60.563 Y59.989 E25.39542
G1 X60.408 Y60.465 E25.41545
G1 X59.631 Y60.862 E25.45035
G1 X58.439 Y60.774 E25.49816
G1 X57.449 Y60.402 E25.54046
G1 X56.604 Y60.515 E25.57456
G1 X56.517 Y60.732 E25.58391
G1 X57.303 Y61.718 E25.63435
G1 X58.064 Y61.673 E25.66484
G1 X58.498 Y61.989 E25.68632
G1 X58.657 Y62.475 E25.70677
G1 X58.064 Y63.42 E25.7514
G1 X58.761 Y64.279 E25.79565
G1 X59.362 Y65.293 E25.8428
G1 X59.202 Y65.782 E25.86338
G1 X58.782 Y66.087 E25.88414
G1 X57.957 Y65.905 E25.91793
G1 X57.054 Y65.136 E25.96537
G1 X56.485 Y63.945 E26.01817
G1 X55.789 Y62.848 E26.07014
G1 X55.147 Y61.822 E26.11855
G1 X54.773 Y60.717 E26.16521
G1 X54.431 Y59.476 E26.2167
G1 X53.779 Y58.451 E26.2653
G1 X53.112 Y57.706 E26.30529
G1 X52.936 Y57.081 E26.33127
G1 X53.105 Y56.565 E26.35299
G1 X53.545 Y56.245 E26.37475
G1 X54.059 Y56.245 E26.39531
G1 X54.78 Y57.065 E26.43898
G1 X55.441 Y57.715 E26.47607
G1 X56.379 Y57.409 E26.51553
G1 X56.071 Y56.199 E26.56548
G1 X56.061 Y55.267 E26.60276
G1 X55.004 Y54.739 E26.65002
G1 X53.872 Y54.357 E26.69781
G1 X53.717 Y53.881 E26.71783
G1 X53.935 Y53.303 E26.74254
G10
;MESH:balancing_wheel_2.stl
G0 F5400 X62.096 Y59.812
G0 X63.375 Y59.812
G0 X63.561 Y59.798
;TYPE:WALL-INNER
G11
G1 F2205.1 X66.65 Y59.799 E26.8661
G1 X66.65 Y65.431 E27.09138
G1 X63.561 Y65.433 E27.21494
G1 X63.361 Y65.433 E27.22294
G1 X63.361 Y65.233 E27.22812
G1 X63.361 Y59.998 E27.43752
G1 X63.361 Y59.798 E27.44552
G1 X63.561 Y59.798 E27.4507
G0 F5400 X63.56 Y59.898
G0 X65.093 Y65.331
G0 X65.093 Y65.831
;TYPE:WALL-OUTER
G1 F1470.1 X63.411 Y65.833 E27.51798
G1 X62.961 Y65.832 E27.53598
G1 X62.961 Y59.398 E27.79334
G1 X65.501 Y59.398 E27.89494
G1 X67.05 Y59.4 E27.9569
G1 X67.05 Y65.831 E28.21414
G1 X65.093 Y65.831 E28.29242
G0 F5400 X64.893 Y65.831
G0 X64.893 Y65.332
G0 X63.751 Y65.043
;TYPE:SKIN
G1 F1470.1 X63.751 Y60.188 E28.48662
G1 X66.26 Y60.189 E28.58698
G1 X66.26 Y65.041 E28.78106
G1 X63.751 Y65.043 E28.88142
G0 F5400 X66.079 Y64.594
G1 F1470.1 X65.811 Y64.862 E28.89658
G0 F5400 X65.245 Y64.862
G1 F1470.1 X66.079 Y64.028 E28.94376
G0 F5400 X66.079 Y63.462
G1 F1470.1 X64.679 Y64.862 E29.02296
G0 F5400 X64.113 Y64.862
G1 F1470.1 X66.079 Y62.897 E29.13414
G0 F5400 X66.079 Y62.331
G1 F1470.1 X63.93 Y64.479 E29.25568
G0 F5400 X63.93 Y63.913
G1 F1470.1 X66.079 Y61.765 E29.37722
G0 F5400 X66.079 Y61.2
G1 F1470.1 X63.93 Y63.348 E29.49875
G0 F5400 X63.93 Y62.782
G1 F1470.1 X66.079 Y60.634 E29.62029
G0 F5400 X65.78 Y60.367
G1 F1470.1 X63.93 Y62.216 E29.72492
G0 F5400 X63.93 Y61.651
G1 F1470.1 X65.214 Y60.367 E29.79755
G0 F5400 X64.648 Y60.367
G1 F1470.1 X63.93 Y61.085 E29.83817
G0 F5400 X63.93 Y60.519
G1 F1470.1 X64.082 Y60.367 E29.84676
G10
;MESH:NONMESH
G0 F600 X64.082 Y60.367 Z0.5
G0 F5400 X63.375 Y59.812
G0 X62.096 Y59.812
G0 X53.809 Y53.347
;TIME_ELAPSED:17.566405
;LAYER:2
;TYPE:SUPPORT
G11
G1 F2695.4 X54.478 Y52.985 E29.87719
G1 X55.066 Y52.985 E29.90071
G1 X56.023 Y53.234 E29.94027
G1 X56.463 Y53.486 E29.96055
G1 X57.055 Y53.056 E29.98981
G1 X57.589 Y53.056 E30.01117
G1 X58.024 Y53.372 E30.03268
G1 X58.188 Y53.876 E30.05388
G1 X57.843 Y54.782 E30.09266
G1 X57.755 Y55.698 E30.12947
G1 X58.704 Y55.596 E30.16765
G1 X59.17 Y55.95 E30.19106
G1 X59.308 Y56.867 E30.22815
G1 X59.015 Y57.876 E30.27018
G1 X58.185 Y58.316 E30.30775
G1 X57.859 Y58.487 E30.32248
G1 X57.892 Y58.76 E30.33348
G1 X59.071 Y59.056 E30.3821
G1 X60.282 Y59.515 E30.4339
G1 X60.282 Y60.463 E30.47182
G1 X59.438 Y60.778 E30.50786
G1 X58.506 Y60.717 E30.54522
G1 X57.531 Y60.336 E30.58709
G1 X56.463 Y60.627 E30.63137
G1 X57.166 Y61.757 E30.6846
G1 X58.168 Y61.669 E30.72483
G1 X58.595 Y61.979 E30.74594
G1 X58.752 Y62.46 E30.76618
G1 X58.114 Y63.471 E30.814
G1 X58.962 Y64.477 E30.86663
G1 X59.433 Y65.315 E30.90508
G1 X59.274 Y65.803 E30.92561
G1 X58.846 Y66.114 E30.94677
G1 X58.152 Y66.07 E30.97459
G1 X57.274 Y65.366 E31.0196
G1 X56.788 Y64.543 E31.05784
G1 X56.352 Y63.566 E31.10063
G1 X55.796 Y62.632 E31.14411
G1 X55.192 Y61.874 E31.18288
G1 X54.702 Y60.681 E31.23447
G1 X54.431 Y59.434 E31.28551
G1 X53.801 Y58.559 E31.32864
G1 X53.178 Y57.826 E31.36712
G1 X52.879 Y57.029 E31.40117
G1 X53.043 Y56.524 E31.42241
G1 X53.471 Y56.213 E31.44357
G1 X54.069 Y56.255 E31.46755
G1 X54.807 Y57.01 E31.50978
G1 X55.332 Y57.648 E31.54283
G1 X56.351 Y57.673 E31.5836
G1 X56.16 Y56.193 E31.64329
G1 X55.935 Y55.138 E31.68644
G1 X54.891 Y54.706 E31.73163
G1 X54.253 Y54.67 E31.75719
G1 X53.814 Y54.351 E31.7789
G1 X53.648 Y53.842 E31.80032
G1 X53.809 Y53.347 E31.82114
G10
;MESH:balancing_wheel_2.stl
G0 F7200 X61.92 Y59.708
G0 X63.199 Y59.709
G0 X66.55 Y65.336
G0 X66.65 Y65.336
;TYPE:WALL-INNER
G11
G1 F2695.4 X66.65 Y65.536 E31.82914
G1 X66.45 Y65.536 E31.83432
G1 X63.186 Y65.535 E31.96488
G1 X63.184 Y63.979 E32.02712
G1 X63.185 Y59.695 E32.19848
G1 X66.65 Y59.695 E32.33708
G1 X66.65 Y65.336 E32.56272
G0 F7200 X67.05 Y65.736
;TYPE:WALL-OUTER
G1 F1347.7 X67.05 Y65.936 E32.57072
G1 X66.85 Y65.936 E32.5759
G1 X62.786 Y65.935 E32.73846
G1 X62.784 Y63.979 E32.8167
G1 X62.784 Y60.585 E32.95246
G1 X62.786 Y59.295 E33.00406
G1 X67.05 Y59.295 E33.17462
G1 X67.05 Y65.736 E33.43226
G0 F7200 X67.05 Y65.936
G0 X66.58 Y65.466
G0 X66.26 Y65.146
;TYPE:SKIN
G1 F1347.7 X63.576 Y65.145 E33.53962
G1 X63.574 Y63.979 E33.58626
G1 X63.575 Y60.085 E33.74202
G1 X66.26 Y60.085 E33.84942
G1 X66.26 Y65.146 E34.05186
G0 F7200 X63.832 Y64.964
