;FLAVOR:UltiGCode
;TIME:806
;MATERIAL:935
;MATERIAL2:0
;NOZZLE_DIAMETER:0.4
;MINX:47.2
;MINY:52.835
;MINZ:0.3
;MAXX:72.8
;MAXY:67.141
;MAXZ:10.2
;Generated with Cura_SteamEngine 4.7.1
M82 ;absolute extrusion mode
G0 F3000 Y50 ;avoid prime blob
G92 E0
G92 E0
G10
;LAYER_COUNT:100
;LAYER:0
M107
;MESH:balancing_wheel_1.stl
G0 F3600 X53.563 Y55.457 Z0.3
;TYPE:WALL-INNER
G11
G1 F1800 X52.9 Y55.4 E0.07985
G1 X47.6 Y55.4 E0.71585
G1 X47.6 Y54.1 E0.87185
G1 X72.4 Y54.1 E3.84785
G1 X72.4 Y55.4 E4.00385
G1 X66.957 Y55.4 E4.65701
G1 X66.419 Y55.462 E4.722
G1 X65.868 Y55.655 E4.79206
G1 X65.373 Y55.967 E4.86227
G1 X64.96 Y56.382 E4.93253
G1 X64.649 Y56.878 E5.00279
G1 X64.46 Y57.43 E5.0728
G1 X64.4 Y57.967 E5.13764
G1 X64.4 Y59.364 E5.30528
G1 X64.4 Y59.578 E5.33096
G1 X64.4 Y60.287 E5.41604
G1 X64.4 Y60.418 E5.43176
G1 X64.375 Y60.287 E5.43244
G1 X64.114 Y59.578 E5.47021
G1 X64.008 Y59.393 E5.49227
G1 X63.754 Y58.948 E5.55376
G1 X63.281 Y58.362 E5.64413
G1 X62.739 Y57.879 E5.73125
G1 X62.101 Y57.474 E5.82193
G1 X61.404 Y57.181 E5.91266
G1 X60.698 Y57.013 E5.99975
G1 X59.947 Y56.959 E6.0901
G1 X59.225 Y57.026 E6.17711
G1 X58.493 Y57.216 E6.26786
G1 X57.805 Y57.525 E6.35837
G1 X57.199 Y57.925 E6.4455
G1 X56.646 Y58.439 E6.5361
G1 X56.202 Y59.013 E6.62318
G1 X55.99 Y59.403 E6.67645
G1 X55.841 Y59.677 E6.71387
G1 X55.6 Y60.383 E6.80339
G1 X55.6 Y59.677 E6.82808
G1 X55.6 Y59.365 E6.85831
G1 X55.6 Y57.956 E7.02739
G1 X55.538 Y57.419 E7.09226
G1 X55.344 Y56.866 E7.16259
G1 X55.032 Y56.372 E7.2327
G1 X54.617 Y55.96 E7.30287
G1 X54.122 Y55.65 E7.37296
G1 X53.563 Y55.457 E7.44393
G0 F3600 X53.479 Y55.851
;TYPE:WALL-OUTER
G1 F1800 X52.883 Y55.8 E7.51571
G1 X47.2 Y55.8 E8.19767
G1 X47.2 Y53.7 E8.44967
G1 X72.8 Y53.7 E11.52167
G1 X72.8 Y55.8 E11.77367
G1 X66.98 Y55.8 E12.47207
G1 X66.509 Y55.854 E12.52896
G1 X66.043 Y56.018 E12.58824
G1 X65.624 Y56.281 E12.6476
G1 X65.275 Y56.632 E12.707
G1 X65.013 Y57.051 E12.7663
G1 X64.853 Y57.518 E12.82554
G1 X64.8 Y57.989 E12.88242
G1 X64.8 Y61.425 E13.29474
G1 X64.778 Y61.963 E13.35935
G1 X64.659 Y62.657 E13.44385
G1 X64.436 Y63.331 E13.52904
G1 X64.122 Y63.959 E13.61329
G1 X63.714 Y64.54 E13.69849
G1 X63.229 Y65.052 E13.78312
G1 X62.857 Y65.356 E13.84077
G1 X62.269 Y65.729 E13.92433
G1 X61.624 Y66.015 E14.00899
G1 X60.937 Y66.206 E14.09456
G1 X60.244 Y66.293 E14.17837
G1 X59.534 Y66.277 E14.26359
G1 X58.841 Y66.158 E14.34797
G1 X58.171 Y65.937 E14.43263
G1 X57.537 Y65.619 E14.51775
G1 X56.96 Y65.213 E14.60241
G1 X56.448 Y64.727 E14.68712
G1 X56.013 Y64.171 E14.77184
G1 X55.766 Y63.759 E14.82948
G1 X55.483 Y63.122 E14.91312
G1 X55.294 Y62.437 E14.99839
G1 X55.207 Y61.74 E15.08268
G1 X55.2 Y61.434 E15.11941
G1 X55.2 Y57.979 E15.53401
G1 X55.146 Y57.509 E15.59078
G1 X54.982 Y57.041 E15.65029
G1 X54.718 Y56.624 E15.70952
G1 X54.367 Y56.275 E15.76892
G1 X53.948 Y56.013 E15.82822
G1 X53.479 Y55.851 E15.88776
G0 F3600 X53.28 Y55.834
G0 X53.306 Y55.537
G0 X54.514 Y56.085
G0 X55.2 Y56.939
G0 X55.941 Y62.489
G0 X56.428 Y63.65
G0 X57.359 Y64.816
G0 X57.423 Y64.74
G1 F1800 X57.998 Y65.122 E15.9706
G1 X58.598 Y65.395 E16.0497
G1 X59.264 Y65.573 E16.13243
G1 X59.918 Y65.639 E16.2113
G1 X60.606 Y65.595 E16.29403
G1 X61.279 Y65.437 E16.37699
G1 X61.888 Y65.183 E16.45617
G1 X62.473 Y64.82 E16.53879
G1 X62.969 Y64.383 E16.61811
G1 X63.406 Y63.851 E16.70073
G1 X63.75 Y63.253 E16.78352
G1 X63.98 Y62.635 E16.86264
G1 X64.113 Y61.964 E16.94473
G1 X64.133 Y61.724 E16.97363
G1 X64.118 Y61.072 E17.05189
G1 X63.988 Y60.394 E17.13473
G1 X63.75 Y59.747 E17.21746
G1 X63.423 Y59.174 E17.29663
G1 X62.99 Y58.639 E17.37922
G1 X62.497 Y58.199 E17.45852
G1 X61.915 Y57.83 E17.54121
G1 X61.279 Y57.563 E17.62398
G1 X60.637 Y57.41 E17.70318
G1 X59.951 Y57.36 E17.78572
G1 X59.294 Y57.421 E17.8649
G1 X58.626 Y57.595 E17.94773
G1 X57.998 Y57.877 E18.03034
G1 X57.447 Y58.241 E18.10959
G1 X56.942 Y58.71 E18.19229
G1 X56.538 Y59.232 E18.2715
G1 X56.209 Y59.838 E18.35425
G1 X55.986 Y60.491 E18.43705
G1 X55.876 Y61.139 E18.51592
G1 X55.874 Y61.829 E18.59872
G1 X55.979 Y62.48 E18.67785
G1 X56.198 Y63.133 E18.7605
G1 X56.521 Y63.742 E18.84322
G1 X56.922 Y64.267 E18.9225
G1 X57.423 Y64.74 E19.00518
G0 F3600 X57.589 Y64.85
G0 X57.533 Y64.933
G0 X56.894 Y64.294
G0 X56.162 Y63.148
G0 X55.835 Y61.835
G0 X55.757 Y60.622
G0 X55.99 Y58.649
;TYPE:SKIN
G1 F1800 X55.99 Y57.933 E19.0911
G1 X55.92 Y57.331 E19.16383
G1 X55.697 Y56.695 E19.2447
G1 X55.338 Y56.126 E19.32544
G1 X54.861 Y55.652 E19.40613
G1 X54.291 Y55.295 E19.48684
G1 X53.645 Y55.073 E19.56881
G1 X52.917 Y55.01 E19.6565
G1 X47.99 Y55.01 E20.24774
G1 X47.99 Y54.49 E20.31014
G1 X72.01 Y54.49 E23.19254
G1 X72.01 Y55.01 E23.25494
G1 X66.935 Y55.01 E23.86394
G1 X66.331 Y55.08 E23.9369
G1 X65.698 Y55.302 E24.0174
G1 X65.128 Y55.661 E24.09823
G1 X64.652 Y56.138 E24.1791
G1 X64.294 Y56.709 E24.25997
G1 X64.077 Y57.344 E24.3405
G1 X64.01 Y57.945 E24.41306
G1 X64.01 Y58.644 E24.49694
G1 X63.564 Y58.093 E24.58201
G1 X62.975 Y57.567 E24.67677
G1 X62.282 Y57.127 E24.77528
G1 X61.525 Y56.809 E24.87381
G1 X60.758 Y56.627 E24.9684
G1 X59.943 Y56.567 E25.06647
G1 X59.157 Y56.64 E25.16119
G1 X58.363 Y56.847 E25.25966
G1 X57.616 Y57.182 E25.3579
G1 X56.957 Y57.617 E25.45266
G1 X56.357 Y58.175 E25.55098
G1 X55.99 Y58.649 E25.62292
G0 F3600 X55.2 Y56.939
G0 X54.514 Y56.085
G0 X53.758 Y55.695
G0 X48.447 Y54.669
G1 F1800 X48.606 Y54.829 E25.64998
G0 F3600 X49.013 Y54.669
G1 F1800 X49.172 Y54.829 E25.67705
G0 F3600 X49.578 Y54.669
G1 F1800 X49.737 Y54.829 E25.70412
G0 F3600 X50.144 Y54.669
G1 F1800 X50.303 Y54.829 E25.73119
G0 F3600 X50.71 Y54.669
G1 F1800 X50.869 Y54.829 E25.75826
G0 F3600 X51.275 Y54.669
G1 F1800 X51.434 Y54.829 E25.78532
G0 F3600 X51.841 Y54.669
G1 F1800 X52 Y54.829 E25.81239
G0 F3600 X52.407 Y54.669
G1 F1800 X52.566 Y54.829 E25.83946
G0 F3600 X52.972 Y54.669
G1 F1800 X53.151 Y54.848 E25.86984
G0 F3600 X53.538 Y54.669
G1 F1800 X53.805 Y54.937 E25.91523
G0 F3600 X54.104 Y54.669
G1 F1800 X54.894 Y55.46 E26.04939
G1 X54.964 Y55.53
G0 F3600 X54.669 Y54.669
G1 F1800 X57.224 Y57.224 E26.48299
G0 F3600 X56.883 Y57.448
G1 F1800 X55.536 Y56.101 E26.71158
G1 X55.466 Y56.031
G0 F3600 X56.062 Y57.193
G1 F1800 X56.585 Y57.716 E26.80033
G0 F3600 X56.292 Y57.989
G1 F1800 X56.162 Y57.859 E26.8224
G0 F3600 X57.57 Y57.004
G1 F1800 X55.235 Y54.669 E27.21866
G0 F3600 X55.801 Y54.669
G1 F1800 X57.96 Y56.829 E27.58514
G0 F3600 X58.358 Y56.661
G1 F1800 X56.367 Y54.669 E27.92311
G0 F3600 X56.932 Y54.669
G1 F1800 X58.807 Y56.544 E28.24131
G0 F3600 X59.276 Y56.447
G1 F1800 X57.498 Y54.669 E28.54304
G0 F3600 X58.064 Y54.669
G1 F1800 X59.793 Y56.399 E28.83655
G0 F3600 X60.377 Y56.417
G1 F1800 X58.629 Y54.669 E29.13319
G0 F3600 X59.195 Y54.669
G1 F1800 X61.032 Y56.507 E29.44503
G1 X61.102 Y56.577
G0 F3600 X61.835 Y56.744
G1 F1800 X59.761 Y54.669 E29.79708
G0 F3600 X60.327 Y54.67
G1 F1800 X63.076 Y57.419 E30.2636
G1 X63.146 Y57.489
G0 F3600 X63.863 Y57.64
G1 F1800 X60.893 Y54.67 E30.76763
G0 F3600 X61.458 Y54.67
G1 F1800 X63.949 Y57.161 E31.19036
G0 F3600 X64.092 Y56.738
G1 F1800 X62.024 Y54.67 E31.54132
G0 F3600 X62.59 Y54.67
G1 F1800 X64.292 Y56.372 E31.83015
G0 F3600 X64.51 Y56.025
G1 F1800 X63.155 Y54.67 E32.06011
G0 F3600 X63.721 Y54.67
G1 F1800 X64.792 Y55.741 E32.24186
G0 F3600 X65.089 Y55.472
G1 F1800 X64.287 Y54.67 E32.37796
G0 F3600 X64.853 Y54.67
G1 F1800 X65.436 Y55.254 E32.47699
G0 F3600 X65.816 Y55.068
G1 F1800 X65.418 Y54.67 E32.54453
G0 F3600 X65.984 Y54.67
G1 F1800 X66.236 Y54.922 E32.5873
G0 F3600 X66.55 Y54.67
G1 F1800 X66.731 Y54.851 E32.61801
G0 F3600 X67.115 Y54.67
G1 F1800 X67.274 Y54.829 E32.645
G0 F3600 X67.681 Y54.67
G1 F1800 X67.84 Y54.829 E32.67198
G0 F3600 X68.247 Y54.67
G1 F1800 X68.406 Y54.829 E32.69896
G0 F3600 X68.812 Y54.67
G1 F1800 X68.971 Y54.829 E32.72595
G0 F3600 X69.378 Y54.67
G1 F1800 X69.537 Y54.829 E32.75293
G0 F3600 X69.944 Y54.67
G1 F1800 X70.103 Y54.829 E32.77991
G0 F3600 X70.509 Y54.67
G1 F1800 X70.668 Y54.829 E32.8069
G0 F3600 X71.075 Y54.67
G1 F1800 X71.234 Y54.829 E32.83388
G0 F3600 X71.641 Y54.67
G1 F1800 X71.8 Y54.829 E32.86086
G0 F3600 X66.459 Y55.62
G0 X65.477 Y56.091
G0 X64.794 Y56.948
G0 X64.5 Y60.644
G0 X64.574 Y60.614
;TYPE:SKIN
G1 F1800 X64.445 Y60.768 E32.87777
G1 X64.445 Y61.9 E32.97303
G1 X64.18 Y63.048 E33.07218
G1 X63.702 Y63.985 E33.1607
G1 X63.054 Y64.751 E33.24514
G1 X62.066 Y65.46 E33.34748
G1 X61.026 Y65.834 E33.44049
G1 X60.023 Y65.963 E33.52559
G1 X59.061 Y65.849 E33.60711
G1 X58.223 Y65.577 E33.68126
G0 F3600 X57.991 Y65.627
G1 F1800 X55.863 Y63.5 E33.86178
G0 F3600 X55.927 Y63.281
G1 F1800 X55.751 Y62.822 E33.91131
G1 X55.544 Y61.767 E34.01963
G1 X55.59 Y60.681 E34.12914
G1 X55.753 Y60.562 E34.14947
G0 F3600 X55.696 Y60.515
G0 X55.894 Y62.113
G0 X56.292 Y64.212
G1 F1800 X57.279 Y65.198 E34.23318
G0 F3600 X57.318 Y65.15
;MESH:NONMESH
G0 F600 X57.318 Y65.15 Z0.4
G0 F3600 X56.162 Y63.148
G0 X55.38 Y57.455
G0 X55.035 Y56.676
G0 X54.111 Y55.645
;TIME_ELAPSED:14.805858
;LAYER:1
M106 S255
;TYPE:WALL-INNER
;MESH:balancing_wheel_1.stl
G1 F2700 X53.555 Y55.457 E34.25666
G1 X53.033 Y55.4 E34.27766
G1 X47.6 Y55.4 E34.49498
G1 X47.6 Y54.1 E34.54698
G1 X72.4 Y54.1 E35.53898
G1 X72.4 Y55.4 E35.59098
G1 X66.944 Y55.401 E35.80922
G1 X66.416 Y55.463 E35.83049
G1 X65.863 Y55.658 E35.85394
G1 X65.368 Y55.971 E35.87737
G1 X64.955 Y56.388 E35.90084
G1 X64.646 Y56.888 E35.92436
G1 X64.458 Y57.441 E35.94772
G1 X64.4 Y57.967 E35.96889
G1 X64.4 Y59.831 E36.04345
G1 X64.4 Y60.356 E36.06445
G1 X64.4 Y61.083 E36.09353
G1 X64.4 Y61.325 E36.10321
G1 X64.386 Y61.732 E36.1195
G1 X64.379 Y61.918 E36.12694
G1 X64.365 Y62.017 E36.13094
G1 X64.316 Y62.352 E36.14448
G1 X64.213 Y62.729 E36.16012
G1 X64.144 Y62.977 E36.17041
G1 X63.983 Y63.364 E36.18718
G1 X63.976 Y63.381 E36.18791
G1 X63.668 Y63.927 E36.21299
G1 X63.604 Y64.014 E36.21731
G1 X63.399 Y64.291 E36.23109
G1 X63.123 Y64.582 E36.24714
G1 X62.959 Y64.756 E36.2567
G1 X62.626 Y65.029 E36.27393
G1 X62.614 Y65.036 E36.27448
G1 X62.085 Y65.373 E36.29957
G1 X61.98 Y65.423 E36.30422
G1 X61.685 Y65.562 E36.31727
G1 X61.354 Y65.672 E36.33122
G1 X61.069 Y65.767 E36.34323
G1 X60.646 Y65.852 E36.36049
G1 X60.623 Y65.853 E36.36141
G1 X60.015 Y65.898 E36.3858
G1 X59.878 Y65.892 E36.39129
G1 X59.563 Y65.877 E36.4039
G1 X59.21 Y65.817 E36.41822
G1 X58.937 Y65.77 E36.4293
G1 X58.525 Y65.644 E36.44654
G1 X58.486 Y65.627 E36.44824
G1 X57.932 Y65.382 E36.47247
G1 X57.872 Y65.346 E36.47527
G1 X57.558 Y65.158 E36.48991
G1 X57.258 Y64.924 E36.50513
G1 X57.043 Y64.757 E36.51601
G1 X56.747 Y64.461 E36.53276
G1 X56.708 Y64.411 E36.5353
G1 X56.337 Y63.934 E36.55947
G1 X56.301 Y63.874 E36.56227
G1 X56.123 Y63.58 E36.57601
G1 X55.96 Y63.209 E36.59222
G1 X55.858 Y62.98 E36.60225
G1 X55.732 Y62.568 E36.61948
G1 X55.72 Y62.498 E36.62232
G1 X55.624 Y61.934 E36.64521
G1 X55.619 Y61.832 E36.64929
G1 X55.6 Y61.49 E36.66299
G1 X55.6 Y61.092 E36.67891
G1 X55.6 Y60.436 E36.70515
G1 X55.6 Y59.82 E36.72979
G1 X55.599 Y57.94 E36.80499
G1 X55.537 Y57.416 E36.8261
G1 X55.342 Y56.862 E36.84959
G1 X55.027 Y56.366 E36.8731
G1 X54.609 Y55.954 E36.89657
G1 X54.111 Y55.645 E36.92002
G0 F5400 X54.153 Y55.555
G0 X55.058 Y56.341
G0 X55.575 Y57.407
G0 X55.754 Y60.425
G0 X55.633 Y61.831
G0 X55.966 Y63.205
G0 X56.721 Y64.404
G0 X57.881 Y65.332
G0 X58.508 Y65.576
G1 F2700 X58.54 Y65.584
G1 X58.956 Y65.697 E36.92303
G1 X59.218 Y65.769 E36.9246
G1 X59.57 Y65.806 E36.92662
G1 X59.88 Y65.839 E36.92849
G1 X60.011 Y65.832 E36.92916
G1 X60.618 Y65.797 E36.93286
G1 X60.632 Y65.794
G1 X61.052 Y65.696 E36.93574
G1 X61.339 Y65.629 E36.93737
G1 X61.658 Y65.498 E36.93925
G1 X61.956 Y65.374 E36.94117
G1 X62.049 Y65.317 E36.9417
G1 X62.583 Y64.988 E36.94558
G1 X62.911 Y64.702 E36.94863
G1 X63.087 Y64.549 E36.94994
G1 X63.342 Y64.244 E36.95228
G1 X63.56 Y63.983 E36.95435
G1 X63.611 Y63.895 E36.95468
G1 X63.925 Y63.352 E36.95854
G1 X63.93 Y63.343
G1 X64.077 Y62.952 E36.96118
G1 X64.166 Y62.717 E36.96257
G1 X64.243 Y62.338 E36.96484
G1 X64.31 Y62.01 E36.96692
G1 X64.317 Y61.913 E36.96706
G1 X64.333 Y61.731 E36.96804
G1 X64.325 Y61.327 E36.97057
G1 X64.32 Y61.083 E36.9725
G1 X64.187 Y60.356 E36.98355
G1 X64.006 Y59.863 E36.99973
G1 X63.932 Y59.662 E37.0083
G1 X63.603 Y59.081 E37.03501
G1 X63.144 Y58.506 E37.06443
G1 X62.645 Y58.059 E37.09123
G1 X62.024 Y57.66 E37.12076
G1 X61.343 Y57.372 E37.15033
G1 X60.693 Y57.216 E37.17707
G1 X59.962 Y57.159 E37.2064
G1 X59.296 Y57.217 E37.23314
G1 X58.579 Y57.398 E37.26272
G1 X57.904 Y57.699 E37.29228
G1 X57.346 Y58.067 E37.31902
G1 X56.804 Y58.564 E37.34844
G1 X56.391 Y59.089 E37.37515
G1 X56.034 Y59.737 E37.40475
G1 X55.993 Y59.853 E37.40967
G1 X55.792 Y60.435 E37.42798
G1 X55.678 Y61.092 E37.43755
G1 X55.675 Y61.49 E37.4406
G1 X55.672 Y61.829 E37.44271
G1 X55.686 Y61.924 E37.44282
G1 X55.775 Y62.488 E37.44611
G1 X55.794 Y62.547 E37.44631
G1 X55.926 Y62.957 E37.44925
G1 X56.002 Y63.19 E37.4506
G1 X56.189 Y63.545 E37.45296
G1 X56.347 Y63.845 E37.45506
G1 X56.386 Y63.896
G1 X56.75 Y64.378 E37.45853
G1 X56.789 Y64.416 E37.45869
G1 X57.092 Y64.704 E37.46152
G1 X57.285 Y64.888 E37.46298
G1 X57.598 Y65.097 E37.46511
G1 X57.9 Y65.298 E37.46735
G1 X57.958 Y65.324
G1 X58.508 Y65.576 E37.47088
G0 F5400 X58.474 Y65.67
G0 X57.261 Y64.919
G0 X56.314 Y63.866
G0 X55.737 Y62.497
G0 X55.639 Y61.089
G0 X55.998 Y59.721
G0 X56.775 Y58.537
G0 X58.508 Y57.321
G0 X58.71 Y57.777
;TYPE:WALL-OUTER
G1 F1800 X58.097 Y58.051 E37.49774
G1 X57.593 Y58.383 E37.52188
G1 X57.098 Y58.837 E37.54875
G1 X56.726 Y59.311 E37.57285
G1 X56.401 Y59.9 E37.59976
G1 X56.181 Y60.535 E37.62664
G1 X56.078 Y61.128 E37.65071
G1 X56.072 Y61.8 E37.6776
G1 X56.165 Y62.395 E37.70168
G1 X56.372 Y63.034 E37.72855
G1 X56.686 Y63.63 E37.7555
G1 X57.05 Y64.111 E37.77963
G1 X57.536 Y64.575 E37.8065
G1 X58.095 Y64.948 E37.83338
G1 X58.644 Y65.199 E37.85753
G1 X59.292 Y65.375 E37.88439
G1 X59.89 Y65.438 E37.90844
G1 X60.561 Y65.4 E37.93533
G1 X61.216 Y65.247 E37.96223
G1 X61.774 Y65.017 E37.98637
G1 X62.345 Y64.665 E38.0132
G1 X62.8 Y64.268 E38.03736
G1 X63.231 Y63.753 E38.06422
G1 X63.567 Y63.171 E38.0911
G1 X63.78 Y62.606 E38.11525
G1 X63.913 Y61.953 E38.14191
G1 X63.933 Y61.718 E38.15134
G1 X63.921 Y61.123 E38.17515
G1 X63.8 Y60.462 E38.20203
G1 X63.568 Y59.831 E38.22892
G1 X63.271 Y59.306 E38.25305
G1 X62.852 Y58.782 E38.27988
G1 X62.402 Y58.378 E38.30407
G1 X61.837 Y58.015 E38.33094
G1 X61.218 Y57.753 E38.35782
G1 X60.63 Y57.612 E38.38201
G1 X59.964 Y57.56 E38.40873
G1 X59.363 Y57.613 E38.43286
G1 X58.71 Y57.777 E38.4598
G0 F5400 X58.528 Y57.858
G0 X58.326 Y57.402
G0 X54.202 Y55.586
G0 X53.939 Y56.009
G1 F1800 X53.468 Y55.85 E38.47968
G1 X53.011 Y55.8 E38.49807
G1 X47.2 Y55.8 E38.73051
G1 X47.2 Y53.7 E38.81451
G1 X72.8 Y53.7 E39.83851
G1 X72.8 Y55.8 E39.92251
G1 X66.967 Y55.801 E40.15583
G1 X66.507 Y55.855 E40.17436
G1 X66.039 Y56.02 E40.1942
G1 X65.62 Y56.285 E40.21404
G1 X65.271 Y56.637 E40.23386
G1 X65.01 Y57.06 E40.25374
G1 X64.851 Y57.528 E40.27352
G1 X64.8 Y57.989 E40.29207
G1 X64.8 Y61.339 E40.42607
G1 X64.778 Y61.954 E40.45068
G1 X64.708 Y62.435 E40.47013
G1 X64.525 Y63.101 E40.49775
G1 X64.336 Y63.556 E40.51746
G1 X64 Y64.152 E40.54483
G1 X63.71 Y64.544 E40.56433
G1 X63.23 Y65.051 E40.59226
G1 X62.861 Y65.354 E40.61136
G1 X62.276 Y65.725 E40.63907
G1 X61.834 Y65.934 E40.65862
G1 X61.176 Y66.153 E40.68636
G1 X60.699 Y66.249 E40.70583
G1 X60.017 Y66.299 E40.73318
G1 X59.525 Y66.276 E40.75288
G1 X58.842 Y66.159 E40.7806
G1 X58.385 Y66.02 E40.79971
G1 X57.749 Y65.739 E40.82752
G1 X57.329 Y65.487 E40.84711
G1 X56.779 Y65.059 E40.87499
G1 X56.445 Y64.725 E40.89388
G1 X56.01 Y64.166 E40.92221
G1 X55.766 Y63.762 E40.94109
G1 X55.482 Y63.12 E40.96917
G1 X55.343 Y62.663 E40.98828
G1 X55.226 Y61.981 E41.01596
G1 X55.2 Y61.49 E41.03563
G1 X55.199 Y57.964 E41.17667
G1 X55.145 Y57.507 E41.19507
G1 X54.98 Y57.038 E41.21496
G1 X54.714 Y56.619 E41.23481
G1 X54.36 Y56.27 E41.2547
G1 X53.939 Y56.009 E41.27451
G0 F5400 X53.75 Y55.946
G0 X54.279 Y55.29
;TYPE:SKIN
G1 F1800 X53.639 Y55.074 E41.30153
G1 X53.054 Y55.01 E41.32507
G1 X47.99 Y55.01 E41.52763
G1 X47.99 Y54.49 E41.54843
G1 X72.01 Y54.49 E42.50923
